!!!!SEGMENT: pl-wn--mus-iii-127-054-cim_katski-apolinary--conte-de-jeune-fille-op-15.krn
!!!cenid: 18xx:3639
!!!COM: Kątski, Apolinary
!!!COM-rismID: pe30020040
!!!CDT: 1825-1879
!!!CNT: Polish
!!!OTL: Conte de jeune fille op. 15
!!!PDT:
!!!AGN:
!!!YEC: Copyright 2022 Narodowy Instytut Fryderyka Chopina (https://polishscores.org)
!!!YEM: License CC-BY-4.0 (https://creativecommons.org/licenses/by/4.0)
!!!SMS-siglum: PL-Wn
!!!SMS-shelfmark: Mus.III.127.054 Cim.
!!!SMS-shelfwork: W
!!!SMS-variant: Partytura Pl-Wn Mus.III.127.054 Cim:2-11
!!!SMS-altvar: Violon Pl-Wn Mus.III.127.054 Cim:14-17
!!!NIFC-rismSourceID:
!!!NIFC-rismChildID:
!!!NIFC-islandoraID: none
!!!URL-pdf-islandora:
!!!URL-scan: https://polona2.pl/item/conte-de-jeune-fille-melodie-pour-violon-avec-accompagnement-de-piano-op-15,OTUyMTY4Mzc/0 @EN{Scan on Polona} @PL{Skany w portalu Polona}
!!!IIIF: https://polona2.pl/iiif/item/OTUyMTY4Mzc/manifest.json
!!!ONB-nifc: UWAGA: wg partytury. Proszę uzupełnić pola @SMS
!!!AIN: 1 piano 1 violn
!!!key: A
**kern	**kern	**dynam	**kern	**fing	**dynam
*part2	*part2	*	*part1	*	*
*staff3	*staff2	*	*staff1	*	*
*I"PIANO.	*I"PIANO.	*	*I"VIOLON.	*	*
*Ipiano	*Ipiano	*	*Ivioln	*	*
*ICklav	*ICklav	*	*ICstr	*	*
*IGacmp	*IGacmp	*	*IGsolo	*	*
*clefF4	*clefG2	*	*clefG2	*	*
*k[f#c#g#]	*k[f#c#g#]	*	*k[f#c#g#]	*	*
*A:	*A:	*	*A:	*	*
*M3/4	*M3/4	*	*M3/4	*	*
=1	=1	=1	=1	=1	=1
*xywh-2:716,1538,4112,809	*xywh-2:716,1538,4112,809	*	*xywh-2:795,932,3989,758	*	*
*	*ped	*	*	*	*
!	!LO:TX:b:t=leggiero.	!	!	!	!
!LO:TX:b:t=una corda.	!LO:TX:a:B:t=All.° assai.	!LO:DY:rj	!	!	!
4r	8cc#L 8e'/	pp	2.r	.	.
.	8b#XJ 8e'/	.	.	.	.
4r	4cc# 4e'/	.	.	.	.
!	!	!LO:DY:b=2:rj	!	!	!
4A'^<\	4r	pp	.	.	.
*	*Xped	*	*	*	*
=2	=2	=2	=2	=2	=2
*	*ped	*	*	*	*
4r	8cc#L 8e'/	.	2.r	.	.
.	8b#XJ 8e'/	.	.	.	.
4r	4cc# 4e'/	.	.	.	.
4A'^<\	4r	.	.	.	.
*	*Xped	*	*	*	*
=3	=3	=3	=3	=3	=3
*	*ped	*	*	*	*
4r	8cc#L 8e'/	.	2.r	.	.
.	8b#XJ 8e'/	.	.	.	.
4r	4cc# 4e'/	.	.	.	.
4A'^<\	4r	.	.	.	.
*	*Xped	*	*	*	*
=4	=4	=4	=4	=4	=4
*	*ped	*	*	*	*
4r	8cc#L 8e'/	.	2.r	.	.
.	8b#XJ 8e'/	.	.	.	.
4r	4cc# 4e'/	.	.	.	.
4A'^<\	4r	.	.	.	.
*	*Xped	*	*	*	*
=5	=5	=5	=5	=5	=5
*xywh-2:755,2685,4095,769	*xywh-2:755,2685,4095,769	*	*xywh-2:812,2307,4006,449	*	*
*	*ped	*	*	*	*
!	!	!	!LO:TX:t=P:problem=oznaczenie smyczka do góry w całym utworze odwrócone	!	!
!	!	!	!LO:TX:b:t=sul D:dur=7q:ext=ud:problem=text with extention lines	!	!LO:DY:rj
4r	8cc#L 8e'/	.	(2.au\	4	p
.	8b#XJ 8e'/	.	.	.	.
4r	4cc# 4e'/	.	.	.	.
4A'^<\	4r	.	.	.	.
*	*Xped	*	*	*	*
!!LO:LB:g=original
=6	=6	=6	=6	=6	=6
*	*ped	*	*	*	*
4r	8cc#L 8e'/	.	(2.ee\)	4	.
.	8b#XJ 8e'/	.	.	.	.
4r	4cc# 4e'/	.	.	.	.
4A'^<\	4r	.	.	.	.
*	*Xped	*	*	*	*
=7	=7	=7	=7	=7	=7
*	*ped	*	*	*	*
4r	8ddL 8f#'/	.	2aao\)	4	.
.	8cc#J 8f#'/	.	.	.	.
4r	4dd 4f#'/	.	.	.	.
4A'^<\	4r	.	8gg#\L	4	.
.	.	.	8ff#\J	.	.
*	*Xped	*	*	*	*
=8	=8	=8	=8	=8	=8
*	*ped	*	*	*	*
4r	8cc#L 8e'/	.	2ee\	.	.
.	8b#XJ 8e'/	.	.	.	.
4r	4cc# 4e'/	.	.	.	.
4A'^<\	4r	.	4r	.	.
*	*Xped	*	*	*	*
=9	=9	=9	=9	=9	=9
*	*ped	*	*	*	*
!	!	!	!LO:TX:b:t=sul D:dur=19q:ext=ud:problem=text with extention lines	!	!
4r	8cc#L 8e'/	.	(2.a\	4	.
.	8b#XJ 8e'/	.	.	.	.
4r	4cc# 4e'/	.	.	.	.
4A'^<\	4r	.	.	.	.
*	*Xped	*	*	*	*
=10	=10	=10	=10	=10	=10
*	*ped	*	*	*	*
4r	8cc#L 8e'/	.	2.ee\	4	.
.	8b#XJ 8e'/	.	.	.	.
4r	4cc# 4e'/	.	.	.	.
4A'^<\	4r	.	.	.	.
*	*Xped	*	*	*	*
=11	=11	=11	=11	=11	=11
*	*ped	*	*	*	*
4r	8bL 8f#'/	.	2ddo\)	3	.
.	8a#XJ 8f#'/	.	.	.	.
4r	4b 4f#'/	.	.	.	.
*	*	*	*	*below	*
4A'^<\	4r	.	8f#/L	2	.
.	.	.	8b/J	4	.
*	*Xped	*	*	*	*
!!LO:LB:g=original
=12	=12	=12	=12	=12	=12
*xywh-2:800,3786,4022,775	*xywh-2:800,3786,4022,775	*	*xywh-2:821,3375,3983,466	*	*
*	*ped	*	*	*	*
4r	8ddL 8g#'/	.	2e/	.	.
.	8cc#J 8g#'/	.	.	.	.
4r	4dd 4g#'/	.	.	.	.
4A'^<\	4r	.	4r	.	.
*	*Xped	*	*	*	*
=13	=13	=13	=13	=13	=13
*	*ped	*	*	*above	*
4r	8cc#L 8a'/	.	(2.a\	4	.
.	8b#XJ 8a'/	.	.	.	.
4r	4cc# 4a'/	.	.	.	.
4A'^<\	4r	.	.	.	.
*	*Xped	*	*	*	*
=14	=14	=14	=14	=14	=14
*	*ped	*	*	*	*
4r	8cc#L 8e'/	.	2.ee\	4	.
.	8b#XJ 8e'/	.	.	.	.
4r	4cc# 4e'/	.	.	.	.
4A'^<\	4r	.	.	.	.
*	*Xped	*	*	*	*
=15	=15	=15	=15	=15	=15
*	*ped	*	*	*	*
4r	8ddL 8f#'/	.	2aao\)	4	.
.	8cc#J 8f#'/	.	.	.	.
4r	4dd 4f#'/	.	.	.	.
4A'^<\	4r	.	8gg#\L	4	.
.	.	.	8ff#\J	.	.
*	*Xped	*	*	*	*
=16	=16	=16	=16	=16	=16
4r	8cc#L 8e'/	.	2ee\	.	.
.	8b#XJ 8e'/	.	.	.	.
4r	4cc# 4e'/	.	.	.	.
4A'^<\	4r	.	4r	.	.
=17	=17	=17	=17	=17	=17
*	*	*^	*	*	*
*	*ped	*	*	*	*	*
!LO:TX:t=cres_cen_do.:problem=dynamics with extention lines	!LO:TX:b:t=sempre staccato	!LO:HP:t=cres_cen_do.	!LO:HP:a	!LO:TX:b:t=Sul A:dur=7q:ext=ud:problem=text with extention lines	!	!
4r	8cc#L 8f##X/	<	>	(2.ee\	2	.
.	8b#XJ 8f##/	.	]	.	.	.
4r	4cc# 4f##/	.	.	.	.	.
4A#^<\	4r	.	.	.	.	.
*	*Xped	*	*	*	*	*
!!LO:LB:g=original
=18	=18	=18	=18	=18	=18	=18
*xywh-2:749,4893,4062,854	*xywh-2:749,4893,4062,854	*	*	*xywh-2:822,4557,3955,432	*	*
*	*ped	*	*	*	*	*
!	!	!	!LO:HP:a	!	!	!
4r	8eeL 8g#\	.	>	(2.b\)	.	.
.	8dd#XJ 8g#\	.	]	.	.	.
4r	4ee 4g#\	.	.	.	.	.
4B'^<\	4r	[[	.	.	.	.
*	*Xped	*	*	*	*	*
=19	=19	=19	=19	=19	=19	=19
*	*ped	*	*	*	*	*
!LO:TX:t=decres_cen_do:problem=dynamics with extention lines	!	!LO:HP:t=decres_cen_do.	!LO:HP:a	!	!	!
4r	8dd#XL 8a\	>	>	2gg#\)	.	.
.	8cc##XJ 8a\	.	]	.	.	.
4r	4dd# 4a\	.	.	.	.	.
4B'^<\	4r	.	.	8b\L	3	.
.	.	.	.	8ff#\J	3	.
*	*Xped	*	*	*	*	*
=20	=20	=20	=20	=20	=20	=20
*	*ped	*	*	*	*	*
4r	8eeL 8b 8g#\	.	.	2ee\	.	.
.	8a#XJ 8g#\	.	.	.	.	.
4r	4b 4g#/	]	.	.	.	.
!	!	!	!LO:DY:b=2:rj	!	!	!
4dn 4E^<\	4r	.	pp	4r	.	.
*	*Xped	*	*	*	*	*
*	*	*v	*v	*	*	*
=21	=21	=21	=21	=21	=21
*	*ped	*	*	*	*
!	!	!	!LO:TX:b:t=sul D:dur=7q:ext=ud:problem=text with extention lines	!	!
4r	8cc#L 8e/	pp	(2.a\	4	.
.	8b#XJ 8e/	.	.	.	.
4r	4cc# 4e/	.	.	.	.
!	!	!LO:DY:b=2:rj	!	!	!
4c# 4A^<\	4r	pp	.	.	.
*	*Xped	*	*	*	*
=22	=22	=22	=22	=22	=22
*	*ped	*	*	*	*
4r	8cc#L 8e/	.	2.ee\	4	.
.	8b#XJ 8e/	.	.	.	.
4r	4cc# 4e/	.	.	.	.
4A^<\	4r	.	.	.	.
*	*Xped	*	*	*	*
=23	=23	=23	=23	=23	=23
*	*ped	*	*	*	*
4r	8ddL 8f#/	.	2aao\)	4	.
.	8cc#J 8f#/	.	.	.	.
4r	4dd 4f#/	.	.	.	.
4A^<\	4r	.	8gg#\L	4	.
.	.	.	8ff#\J	.	.
*	*Xped	*	*	*	*
!!LO:PB:g=original
=24	=24	=24	=24	=24	=24
*xywh-3:412,905,4026,693	*xywh-3:412,905,4026,693	*	*xywh-3:423,556,3998,417	*	*
*	*ped	*	*	*	*
4r	8cc#L 8e'/	.	2ee\	.	.
.	8b#XJ 8e'/	.	.	.	.
4r	4cc# 4e'/	.	.	.	.
4A'^<\	4r	.	4r	.	.
*	*Xped	*	*	*	*
=25	=25	=25	=25	=25	=25
*	*ped	*	*	*	*
!	!	!	!LO:TX:b:t=sul D:dur=7q:ext=ud:problem=text with extention lines	!	!
4r	8cc#L 8e'/	.	(2.a/	.	.
.	8b#XJ 8e'/	.	.	.	.
4r	4cc# 4e'/	.	.	.	.
4A'^<\	4r	.	.	.	.
*	*Xped	*	*	*	*
=26	=26	=26	=26	=26	=26
*	*ped	*	*	*	*
4r	8cc#L 8e'/	.	2.ee\	.	.
.	8b#XJ 8e'/	.	.	.	.
4r	4cc# 4e'/	.	.	.	.
4A'^<\	4r	.	.	.	.
*	*Xped	*	*	*	*
=27	=27	=27	=27	=27	=27
*	*ped	*	*	*	*
4r	8bL 8f#'/	.	2ddo\)	.	.
.	8a#XJ 8f#'/	.	.	.	.
4r	4b 4f#'/	.	.	.	.
*	*	*	*	*below	*
4A'^<\	4r	.	8f#/L	2	.
.	.	.	8b/J	4	.
*	*Xped	*	*	*	*
=28	=28	=28	=28	=28	=28
*	*ped	*	*	*	*
4r	8ddL 8g#'/	.	2e/	.	.
.	8cc#J 8g#'/	.	.	.	.
4r	4dd 4g#'/	.	.	.	.
4A'^<\	4r	.	4r	.	.
*	*Xped	*	*	*	*
=29	=29	=29	=29	=29	=29
*	*ped	*	*	*above	*
!	!	!	!LO:TX:b:t=sul D:dur=7q:ext=ud:problem=text with extention lines	!	!
4r	8cc#L 8a'/	.	(2.a/	4	.
.	8b#XJ 8a'/	.	.	.	.
4r	4cc# 4a'/	.	.	.	.
4A'^<\	4r	.	.	.	.
*	*Xped	*	*	*	*
!!LO:LB:g=original
=30	=30	=30	=30	=30	=30
*xywh-3:401,1887,4150,733	*xywh-3:401,1887,4150,733	*	*xywh-3:434,1560,4003,417	*	*
*	*ped	*	*	*	*
4r	8cc#L 8e'/	.	(2.ee\)	4	.
.	8b#XJ 8e'/	.	.	.	.
4r	4cc# 4e'/	.	.	.	.
4A'^<\	4r	.	.	.	.
*	*Xped	*	*	*	*
=31	=31	=31	=31	=31	=31
*	*ped	*	*	*	*
4r	8ddL 8f#'/	.	2aao\)	4	.
.	8cc#J 8f#'/	.	.	.	.
4r	4dd 4f#'/	.	.	.	.
4A'^<\	4r	.	8gg#\L	4	.
.	.	.	8ff#\J	.	.
*	*Xped	*	*	*	*
=32	=32	=32	=32	=32	=32
*	*ped	*	*	*	*
4r	8cc#L 8e'/	.	2ee\	.	.
.	8b#XJ 8e'/	.	.	.	.
4r	4cc# 4e'/	.	.	.	.
4A'^<\	4r	.	4r	.	.
*	*Xped	*	*	*	*
=33	=33	=33	=33	=33	=33
*ped	*	*	*	*	*
!	!LO:TX:b:t=rite_nu_to.:dur=8q:ext=ud:problem=text with extention lines	!LO:HP:a	!LO:TX:b:t=rite_nu_to.:dur=8q:ext=ud:problem=text with extention lines	!	!
4r	8cc#L 8e/	>	(2.ee\	.	<
.	8b#XJ 8e/	]	.	.	.
4r	4cc# 4e/	.	.	.	.
4G#^<\	4r	.	.	.	.
*Xped	*	*	*	*	*
=34	=34	=34	=34	=34	=34
*ped	*	*	*	*	*
4r	8cc#L 8e/	.	(2.gg#\)	2	[
.	8b#XJ 8e/	.	.	.	.
4r	4cc# 4e/	.	.	.	.
4G#^<\	4r	.	.	.	.
*Xped	*	*	*	*	*
=35	=35	=35	=35	=35	=35
*ped	*	*	*	*	*
4r	8b#XL 8f#/	.	2g#/)	.	.
.	8bnJ 8f#/	.	.	.	.
4r	4b#X 4f#/	.	.	.	.
4G#^<\	4r	.	8dd#X\L	.	.
.	.	.	8ee\J	.	.
*Xped	*	*	*	*	*
!!LO:LB:g=original
=36	=36	=36	=36	=36	=36
*xywh-3:326,2890,4122,687	*xywh-3:326,2890,4122,687	*	*xywh-3:472,2608,3919,383	*	*
*	*ped	*	*	*	*
!	!LO:TX:a:t=a tempo.	!	!	!	!
4r	8cc#L 8e/	.	(2.cc#v\	.	.
.	8b#XJ 8e/	.	.	.	.
4r	4cc# 4e/	.	.	.	.
4c#\	4r	.	.	.	.
*	*Xped	*	*	*	*
=37	=37	=37	=37	=37	=37
*	*ped	*	*	*	*
4r	8cc#L 8a/	.	8ff#\)	3	.
.	8b#XJ 8a/	.	8r	.	.
4r	4cc# 4a/	.	4ff#\	.	.
4c#\	4r	.	4ff#\	.	.
*	*Xped	*	*	*	*
=38	=38	=38	=38	=38	=38
*	*ped	*	*	*	*
4r	8cc#L 8g#/	.	(2.ee^<u\	.	.
.	8b#XJ 8g#/	.	.	.	.
4r	4cc# 4g#/	.	.	.	.
4c#\	4r	.	.	.	.
*	*Xped	*	*	*	*
=39	=39	=39	=39	=39	=39
*	*ped	*	*	*	*
.	.	.	8qqdd#X/L	.	.
.	.	.	8qqee/J	.	.
4r	8cc#L 8a 8f#/	.	4dd#y\)	.	.
.	8b#XJ 8a 8f#/	.	.	.	.
4r	4cc# 4a 4f#/	.	4cc#\	1	.
4c#\	4r	.	4dd#\	1	.
*	*Xped	*	*	*	*
=40	=40	=40	=40	=40	=40
*	*ped	*	*	*below	*
4r	8cc#L 8g#/	.	(2.eev\	2	.
.	8b#XJ 8g#/	.	.	.	.
4r	4cc# 4g#/	.	.	.	.
4c#\	4r	.	.	.	.
*	*Xped	*	*	*	*
=41	=41	=41	=41	=41	=41
*	*ped	*	*	*	*
4r	8cc#L 8a/	.	4ff#\	2	.
.	8b#XJ 8a/	.	.	.	.
4r	4cc# 4a/	.	4.gg#\	.	.
4c#\	4r	.	.	.	.
.	.	.	8ff#\)	3	.
*	*Xped	*	*	*	*
!!LO:LB:g=original
=42	=42	=42	=42	=42	=42
*xywh-3:332,3877,4099,738	*xywh-3:332,3877,4099,738	*	*xywh-3:422,3606,3981,389	*	*
*ped	*	*	*	*	*
4r	8cc#L 8g#/	.	(2.eeu\	.	.
.	8b#XJ 8g#/	.	.	.	.
4r	4cc# 4g#/	.	.	.	.
4c#\	4r	.	.	.	.
*Xped	*	*	*	*	*
=43	=43	=43	=43	=43	=43
*ped	*	*	*	*	*
.	.	.	8qqddn/L	.	.
.	.	.	8qqee/J	.	.
4r	8cc#L 8a 8f#/	.	4dd#X\)	.	.
.	8b#XJ 8a 8f#/	.	.	.	.
4r	4cc# 4a 4f#/	.	4cc#\	.	.
4c#\	4r	.	4dd#\	.	.
*Xped	*	*	*	*	*
=44	=44	=44	=44	=44	=44
*ped	*	*	*	*above	*
4r	8cc#L 8g#/	.	[2.ee^<v\	2	.
.	8b#XJ 8g#/	.	.	.	.
4r	4cc# 4g#/	.	.	.	.
4c#\	4r	.	.	.	.
*Xped	*	*	*	*	*
=45	=45	=45	=45	=45	=45
*ped	*	*	*	*	*
!	!	!LO:HP:a	!	!	!
!	!LO:TX:b:t=riten.	!LO:DY:b	!LO:TX:b:t=riten.	!	!
4r	8a#XL 8gn/	mf >	8ee\]	4	>
.	8a#J 8gn/	]	8r	.	.
4r	4a#X 4g/	.	[4ee'~u\	.	.
4c#^<\	4r	.	4ee'~\]	.	]]
*Xped	*	*	*	*	*
=46	=46	=46	=46	=46	=46
*ped	*	*	*	*	*
!	!LO:TX:a:t=a tempo.	!	!	!	!LO:DY:rj
4r	8bL 8g#X/	pp	[2.eev\	.	pp
.	8a#XJ 8g#/	.	.	.	.
4r	4b 4g#/	.	.	.	.
4d'\	4r	.	.	.	.
=47	=47	=47	=47	=47	=47
4r	8bL 8g#X/	.	4ee\]	2	.
.	8a#XJ 8g#/	.	.	.	.
.	.	.	(8qqeeu/L	.	.
.	.	.	8qqgg#/J	.	.
4r	4b 4g#/	.	4ff#\	.	.
4d\	4r	.	4ee\)	.	.
*Xped	*	*	*	*	*
!!LO:LB:g=original
=48	=48	=48	=48	=48	=48
*xywh-3:343,4909,4133,834	*xywh-3:343,4909,4133,834	*	*xywh-3:405,4587,4099,389	*	*
*ped	*	*	*	*below	*
4r	8bL 8g#/	.	[2.dd#Xv\	1	.
.	8a#XJ 8g#/	.	.	.	.
4r	4b 4g#/	.	.	.	.
4d#X'\	4r	.	.	.	.
=49	=49	=49	=49	=49	=49
4r	8bL 8g#/	.	8dd#\]	3	.
.	8a#XJ 8g#/	.	8r	.	.
4r	4b 4g#/	.	[4dd#X'~u\	.	.
4d#X'\	4r	.	4dd#'~\]	.	.
*Xped	*	*	*	*	*
=50	=50	=50	=50	=50	=50
*ped	*	*	*	*	*
4r	8bL 8g#/	.	[2.ddnv\	3	.
.	8a#XJ 8g#/	.	.	.	.
4r	4b 4g#/	.	.	.	.
4e\	4r	.	.	.	.
=51	=51	=51	=51	=51	=51
4r	8bL 8g#/	.	4dd\]	1	.
.	8a#XJ 8g#/	.	.	.	.
.	.	.	(8qqddu/L	.	.
.	.	.	8qqff#/J	.	.
4r	4b 4g#/	.	4ee\	.	.
4e\	4r	.	4dd\)	.	.
*Xped	*	*	*	*	*
=52	=52	=52	=52	=52	=52
*ped	*	*	*	*	*
4r	8bL 8g#/	.	2cc#v\	1	.
.	8a#XJ 8g#/	.	.	.	.
4r	4b 4g#/	.	.	.	.
4e#X\	4r	.	(4cc#u\	1	.
=53	=53	=53	=53	=53	=53
.	.	.	8qqcc#/L	2	>
.	.	.	8qqee/J	.	.
4r	8bL 8g#/	.	2dd\	.	.
.	8a#XJ 8g#/	.	.	.	.
4r	4b 4g#/	.	.	.	.
4e#X\	4r	.	4cc#\)	.	]
*Xped	*	*	*	*	*
!!LO:PB:g=original
=54	=54	=54	=54	=54	=54
*xywh-4:760,876,4016,705	*xywh-4:760,876,4016,705	*	*xywh-4:732,453,4044,524	*	*
*	*ped	*	*	*above	*
4r	8aL 8f#/	.	(2.cc#v\	2	.
.	8g#J 8f#/	.	.	.	.
4r	4a 4f#/	.	.	.	.
4F#'^<\	4r	.	.	.	.
*<	*Xped	*	*	*	*
=55	=55	=55	=55	=55	=55
*	*ped	*	*	*	*
4r	8bL 8f#/	.	8dd`\)	1	.
.	8a#XJ 8f#/	.	8r	.	.
4r	4b 4f#/	.	(4ddu\	.	<
4F#'^<\	4r	.	4ff#\)	.	[[
*	*Xped	*	*	*	*
=56	=56	=56	=56	=56	=56
*	*ped	*	*	*	*
4r	8aL 8f#/	.	(2.cc#^<v\	2	.
.	8g#J 8f#/	.	.	.	.
4r	4a 4f#/	.	.	.	.
4F#^<\	4r	.	.	.	.
*	*Xped	*	*	*	*
=57	=57	=57	=57	=57	=57
*	*ped	*	*	*	*
4r	8g#L 8f#/	.	8b`\)	1	.
.	8gnJ 8f#/	.	8r	.	.
4r	4g#X 4f#/	.	(4bu\	3	<
4F#^<\	4r	.	4ddo\)	3	[[
*	*Xped	*	*	*	*
=58	=58	=58	=58	=58	=58
*	*ped	*	*	*	*
4r	8aL 8f#/	.	(2.cc#v\	2	.
.	8g#J 8f#/	.	.	.	.
4r	4a 4f#/	.	.	.	.
4F#\	4r	.	.	.	.
*	*Xped	*	*	*	*
=59	=59	=59	=59	=59	=59
*	*ped	*	*	*	*
4r	8bL 8f#/	.	8dd\)	1	.
.	8a#XJ 8f#/	.	8r	.	.
4r	4b 4f#/	.	(4ddu\	.	<
4F#\	4r	.	4ff#\)	.	[[
*	*Xped	*	*	*	*
=60	=60	=60	=60	=60	=60
*	*ped	*	*	*	*
4r	8aL 8f#/	.	(2.cc#v\	.	.
.	8g#J 8f#/	.	.	.	.
4r	4a 4f#/	.	.	.	.
4F#\	4r	.	.	.	.
*	*Xped	*	*	*	*
!!LO:LB:g=original
=61	=61	=61	=61	=61	=61
*xywh-4:770,1934,3990,654	*xywh-4:770,1934,3990,654	*	*xywh-4:860,1575,3875,434	*	*
*	*ped	*	*	*	*
4r	8g#L 8f#/	.	8dd`\)	.	.
.	8gnJ 8f#/	.	8r	.	.
4r	4g#X 4f#/	.	(4ddu\	3	<
4F#\	4r	.	4ff#o\)	3	[[
*	*Xped	*	*	*	*
=62	=62	=62	=62	=62	=62
*	*ped	*	*	*	*
4r	8aL 8f#/	.	(2.cc#v\	2	.
.	8g#J 8f#/	.	.	.	.
4r	4a 4f#/	.	.	.	.
4F#\	4r	.	.	.	.
*	*Xped	*	*	*	*
=63	=63	=63	=63	=63	=63
*	*	*	*	*	*^
*	*ped	*	*	*	*	*
!	!LO:TX:b:t=poco_a_poco_cres_cen_do:problem=dynamics with extention lines	!LO:HP:t=poco_a_poco_cres_cen_do	!LO:TX:b:t=poco_a_poco_cres_cen_do.:problem=dynamics with extention lines	!	!LO:HP:t=poco_a_poco_cres_cen_do.	!
4r	8bL 8f#/	<	8b\)	1	<	.
.	8a#XJ 8f#/	.	8r	.	.	.
4r	4b 4f#/	.	(4bu\	.	.	<
4F#\	4r	.	4dd\)	.	.	[ sf
*	*Xped	*	*	*	*	*
=64	=64	=64	=64	=64	=64	=64
*	*ped	*	*	*	*	*
4r	8bL 8f#/	.	(2.ddv\	.	.	.
.	8a#XJ 8f#/	.	.	.	.	.
4r	4b 4f#/	.	.	.	.	.
4FF#^/	4r	.	.	.	.	.
*	*Xped	*	*	*	*	*
=65	=65	=65	=65	=65	=65	=65
*	*ped	*	*	*	*	*
4r	8b#XL 8f#/	.	8dd#X\)	.	.	.
.	8bnJ 8f#/	.	8r	.	.	.
4r	4b#X 4f#/	.	(4dd#u\	.	.	<
4F#\	4r	.	4ff#\)	.	.	[ sf
*	*Xped	*	*	*	*	*
=66	=66	=66	=66	=66	=66	=66
*	*ped	*	*	*	*	*
4r	8b#XL 8f#/	.	(2.dd#Xv\	.	.	.
.	8bnJ 8f#/	.	.	.	.	.
4r	4b#X 4f#/	.	.	.	.	.
4FF#^/	4r	.	.	.	.	.
*	*Xped	*	*	*	*	*
=67	=67	=67	=67	=67	=67	=67
*	*ped	*	*	*	*	*
4r	8cc#L 8f#/	.	8ee\)	.	.	.
.	8b#XJ 8f#/	.	8r	.	.	.
4r	4cc# 4f#/	.	(4eeu\	.	.	<
4F#\	4r	.	4ff#\)	.	.	[ sf
*	*Xped	*	*	*	*	*
!!LO:LB:g=original
=68	=68	=68	=68	=68	=68	=68
*xywh-4:721,2879,4032,770	*xywh-4:721,2879,4032,770	*	*xywh-4:775,2577,4002,424	*	*	*
*	*ped	*	*	*	*	*
4r	8cc##XL 8f#/	.	8ee#Xv\	.	.	.
!	!LO:N:n=1:acc=n#	!	!	!	!	!
.	8cc#XJ 8f#/	.	8r	.	.	.
4r	4cc##X 4f#/	.	(4ee#\	.	[	[ <
4FF#^/	4r	[	4ff#\)	.	.	[ sf
*	*Xped	*	*	*	*	*
*	*	*	*	*	*v	*v
=69	=69	=69	=69	=69	=69
*	*ped	*	*	*	*
!	!LO:TX:b:t=rite-nu-to.:dur=5q:ext=ud:problem=text with extention lines	!	!	!	!
4r	8dd#XL 8f#^>/	.	4ff#v\	.	.
!	!LO:TX:b:t=cres._:problem=dynamics with extention lines	!LO:HP:t=cres.	!LO:TX:b:t=rite-nu-to.:dur=4qe:ext=ud:problem=text with extention lines	!	!
.	8cc##XJ 8f#^>/	<	.	.	.
!	!	!	!LO:TX:b:t=cres._:problem=dynamics with extention lines	!	!LO:HP:t=cres.
4r	4dd# 4f#^>/	.	4ff# 4f#^\	.	<
4F# 4FF#^/	4ee 4f#^>/	.	4ggn 4gn^\	.	.
*	*Xped	*	*	*	*
=70	=70	=70	=70	=70	=70
*	*ped	*	*	*	*
4r	8ee#XL 8f#^>/	.	4gg#X 4g#X^\	.	.
.	8dd##XJ 8f#^>/	.	.	.	.
4r	4ee# 4f#^>/	.	4gg# 4g#^\	.	.
4F# 4FF#^/	4ff# 4een 4f#^>\	[[	4aa#X 4a#X^\	.	[[
*	*Xped	*	*	*	*
=71||	=71||	=71||	=71||	=71||	=71||
!	!	!	!LO:TX:b:t=a tempo.	!	!
!	!	!LO:DY:rj	!	!	!LO:DY:rj
2d#X 2B 2F#\	8ff#L 8dd#X 8b 8f#\	ff	2.bb^ 2.b^^<\	.	ff
!	!LO:TX:b:t=con energia	!	!LO:TX:a:t=con energia.	!	!
.	8ee#XJ 8b 8e#X\	.	.	.	.
.	2ff# 2b 2f#^^\	.	.	.	.
!	!	!LO:DY:b=2:rj	!	!	!
4BB 4BBB/	.	sf	.	.	.
=72	=72	=72	=72	=72	=72
2e 2B 2G#\	8gg#L 8b 8g#\	.	(16gg#u\KL	.	<[
.	.	.	8.bbJ 8.b\)	.	sf
.	8ff##XJ 8b 8f##X\	.	.	.	.
.	2gg# 2b 2g#^^\	.	(16ff#v\KL	.	<[
.	.	.	8.bbJ 8.b\)	.	sf
!	!	!LO:DY:b=2:rj	!	!	!
4BB 4BBB/	.	sf	(16eeu\KL	.	<[
.	.	.	8.bbJ 8.b\)	.	sf
=73	=73	=73	=73	=73	=73
*	*	*	*	*^	*
!	!LO:N:n=1:acc=n#	!	!	!	!	!
!	!LO:N:n=3:acc=n#	!	!	!	!	!
2d#X 2B 2F#\	8ff#XL 8b 8f#X\	.	(16dd#X\KL	2	.	<[
.	.	.	8.ff#J 8.a\)	.	.	sf
.	8ee#XJ 8b 8e#X\	.	.	.	.	.
.	2ff# 2b 2f#^^\	.	(16cc#\KL	.	.	<[
.	.	.	8.ff#J 8.f#\)	.	.	sf
!	!	!LO:DY:b=2:rj	!	!	!	!
4BB 4BBB/	.	sf	(16b\KL	1	.	<[
.	.	.	8.ff#J 8.f#\)	4	2	sf
!!LO:LB:g=original
=74	=74	=74	=74	=74	=74	=74
*xywh-4:751,3922,4044,739	*xywh-4:751,3922,4044,739	*	*xywh-4:757,3595,4020,418	*	*	*
2e 2c# 2F#\	8ff#L 8a#X 8f#\	.	(16a/KL	2	.	<[
.	.	.	8.cc#J 8.c#/)	.	.	sf
.	8ee#XJ 8a# 8e#X\	.	.	.	.	.
.	2ff# 2a# 2f#^^\	.	(16g#/KL	.	.	<[
.	.	.	8.cc#J 8.c#/)	.	.	sf
!	!	!LO:DY:b=2:rj	!	!	!	!
4BB 4BBB/	.	sf	(16f#/KL	1	.	<[
.	.	.	8.cc#J 8.c#/)	4	2	sf
*	*	*	*	*v	*v	*
=75	=75	=75	=75	=75	=75
!	!	!LO:DY:rj	!	!	!
.	(8qg#/	p	.	.	.
2d#X 2B 2F#\	8f#'/L)	.	(4.d#Xv/	2	p <
.	8e#X'/J	.	.	.	.
.	2f#^>/	.	.	.	.
.	.	.	8e/L	.	.
4BB`/	.	.	8e#X/	.	.
.	.	.	8f#/J)	.	[[
=76	=76	=76	=76	=76	=76
.	(8qg#/	.	.	.	.
!	!	!	!LO:TX:b:t=cres_cen_do.:problem=dynamics with extention lines	!	!LO:HP:t=cres_cen_do.
2e 2A#X 2F#\	8f#'/L)	.	(4.gnu/	.	<
.	8e#X'/J	.	.	.	.
.	2f#^>/	.	.	.	.
.	.	.	8g#X/L	.	.
4BB`/	.	.	8a/	.	.
.	.	.	8a#X/J)	.	.
=77	=77	=77	=77	=77	=77
.	(8qg#/	.	.	.	.
2d#X 2B 2F#\	8f#'/L)	.	(8b\L	3	.
.	8e#X'/J	.	8ccn\	.	.
.	2f#^>/	.	8cc#X\	.	.
.	.	.	8dd\	.	.
4BB`/	.	.	8dd#X\	.	.
.	.	.	8ee\J)	.	.
=78	=78	=78	=78	=78	=78
.	(8qg#/	.	.	.	.
2e 2c# 2F#\	8f#'/L)	.	(8ee#X\L	2	.
.	8e#X'/J	.	8ff#\	.	.
.	2f#^>/	.	8ggn\	.	.
.	.	.	8gg#X\	.	.
4BB`/	.	.	8aa\	.	.
.	.	.	8aa#X\J)	.	[[
=79	=79	=79	=79	=79	=79
!	!	!LO:DY:rj	!	!	!LO:DY:rj
2d#X 2B 2F#\	8ff#L 8b 8f#\	ff	2.bb 2.b^v\	.	ff
.	8ee#XJ 8b 8e#X\	.	.	.	.
.	2ff# 2b 2f#^^\	.	.	.	.
!	!	!LO:DY:b=2:rj	!	!	!
4BB 4BBB/	.	sf	.	.	.
!!LO:LB:g=original
=80	=80	=80	=80	=80	=80
*xywh-4:805,4965,4020,776	*xywh-4:805,4965,4020,776	*	*xywh-4:836,4571,3953,448	*	*
2e 2B 2G#\	8gg#L 8b 8g#\	.	(16gg#u\KL	.	<[
.	.	.	8.bbJ 8.b\)	.	sf
.	8ff##XJ 8b 8f##X\	.	.	.	.
.	2gg# 2b 2g#^^\	.	(16ff#v\KL	.	<[
.	.	.	8.bbJ 8.b\)	.	sf
!	!	!LO:DY:b=2	!	!	!
4BB 4BBB/	.	sf	(16eeu\KL	.	<[
.	.	.	8.bbJ 8.dd\)	.	sf
=81	=81	=81	=81	=81	=81
!	!LO:N:n=1:acc=n#	!	!	!	!
!	!LO:N:n=3:acc=n#	!	!	!	!
2d#X 2B 2F#\	8ff#XL 8b 8f#X\	.	(16dd#Xu\KL	2	<[
.	.	.	8.ff#J 8.f#\)	.	sf
.	8ee#XJ 8b 8e#X\	.	.	.	.
.	2ff# 2b 2f#^^\	.	(16cc#v\KL	.	<[
.	.	.	8.ff#J 8.f#\)	.	sf
!	!	!LO:DY:b=2	!	!	!
4BB 4BBB/	.	sf	(16bu\KL	1	<[
.	.	.	8.ff#J 8.f#\)	4	sf
=82	=82	=82	=82	=82	=82
2e 2c# 2F#\	8ff#L 8a#X 8f#\	.	(16au/KL	.	<[
.	.	.	8.cc#J 8.c#/)	.	sf
.	8ee#XJ 8a# 8e#X\	.	.	.	.
.	2ff# 2a# 2f#^^\	.	(16g#v/KL	.	<[
.	.	.	8.cc#J 8.c#/)	.	sf
!	!	!LO:DY:b=2:rj	!	!	!
4BB 4BBB/	.	sf	(16f#u/KL	1	<[
.	.	.	8.cc#J 8.c#/)	4	sf
=83	=83	=83	=83	=83	=83
.	(8qg#/	p	.	.	.
2d#X 2B 2F#\	8f#'/L)	.	(4.d#X/	.	p
.	8e#X'/J	.	.	.	.
!	!	!	!LO:TX:b:t=cres_cen_do.:problem=dynamics with extention lines	!	!LO:HP:t=cres_cen_do.
.	2f#^>/	.	.	.	<
.	.	.	8e/L	.	.
4BB`/	.	.	8e#X/	.	.
.	.	.	8f#/J)	.	.
=84	=84	=84	=84	=84	=84
.	(8qen/	.	.	.	.
2c# 2A#X\	8d#X'/L)	.	(4.gn/	.	.
.	8c##X'/J	.	.	.	.
.	2d#^>/	.	.	.	.
.	.	.	8g#X/L	.	.
4D#X`\	.	.	8a/	.	.
.	.	.	8a#X/J)	.	.
=85	=85	=85	=85	=85	=85
.	(8qe/	.	.	.	.
2B 2G#\	8d#X'/L)	.	(4.b\	.	.
.	8c##X'/J	.	.	.	.
.	2d#^>/	.	.	.	.
.	.	.	8cc#\L	.	.
4GG#`/	.	.	8dd\	.	.
.	.	.	8dd#X\J)	.	.
!!LO:PB:g=original
=86	=86	=86	=86	=86	=86
*xywh-5:332,875,4012,767	*xywh-5:332,875,4012,767	*	*xywh-5:388,530,3995,434	*	*
.	(8qf#/	.	.	.	.
2dn 2B 2G#\	8e'/L)	.	(4.ee\	.	.
.	8d#X'/J	.	.	.	.
.	2e^>/	.	.	.	.
.	.	.	8ffn\L	.	.
4EE/	.	.	8ff#X\	.	.
.	.	.	8gg#\J)	.	[
=87	=87	=87	=87	=87	=87
!	!	!LO:DY:rj	!	!	!LO:DY:rj
2c# 2A 2E\	8eeL 8a 8e/	ff	2.aa^ 2.a^^<\	.	ff
.	8dd#XJ 8a 8d#X/	.	.	.	.
.	2ee 2a 2e^^</	.	.	.	.
!	!	!LO:DY:b=2:rj	!	!	!
4AA 4AAA/	.	sf	.	.	.
=88	=88	=88	=88	=88	=88
2d 2A 2F#\	8ff#L 8a 8f#/	.	(16ff#\KL	.	<[
.	.	.	8.aaJ 8.a\)	.	sf
.	8ee#XJ 8a 8e#X/	.	.	.	.
.	2ff# 2a 2f#^^</	.	(16ee\KL	.	<[
.	.	.	8.aaJ 8.a\)	.	sf
!	!	!LO:DY:b=2:rj	!	!	!
4AA 4AAA/	.	sf	(16dd\KL	.	<[
.	.	.	8.aaJ 8.a\)	.	sf
=89	=89	=89	=89	=89	=89
2c# 2A 2E\	8eenL 8a 8en/	.	(16cc#/KL	.	<[
.	.	.	8.eeJ 8.e/)	.	sf
.	8dd#XJ 8a 8d#X/	.	.	.	.
.	2ee 2a 2e^^</	.	(16b/KL	.	<[
.	.	.	8.eeJ 8.e/)	.	sf
!	!	!LO:DY:b=2:rj	!	!	!
4AA 4AAA/	.	sf	(16a/KL	.	<[
.	.	.	8.eeJ 8.e/)	.	sf
=90	=90	=90	=90	=90	=90
*	*	*	*	*^	*
!	!	!	!	!	!	!LO:HP:a
2d 2B 2E\	8eeL 8g# 8e/	.	(16g#/KL	.	2	<[
!	!	!	!	!	!	!LO:DY:a
.	.	.	8.bJ 8.B/)	.	.	sf
.	8dd#XJ 8a 8d#X/	.	.	.	.	.
!	!	!	!	!	!	!LO:HP:a
.	2ee 2g# 2e^^</	.	(16f#/KL	.	.	<[
!	!	!	!	!	!	!LO:DY:a
.	.	.	8.bJ 8.B/)	.	.	sf
!	!	!LO:DY:b=2:rj	!	!	!	!LO:HP:a
4AA 4AAA/	.	sf	(16e/KL	.	1	<[
!	!	!	!	!	!	!LO:DY:a
.	.	.	8.bJ 8.B/)	4	2	sf
*	*	*	*	*v	*v	*
=91	=91	=91	=91	=91	=91
.	(8qf#/	p	.	.	.
!	!	!	!	!	!LO:DY:rj
2c# 2A 2E\	8e/L)	.	(4.c#v/	.	p
.	8d#X/J	.	.	.	.
.	2e^>/	.	.	.	.
.	.	.	8d/L	.	.
4AA`/	.	.	8d#X/	.	.
.	.	.	8e/J)	.	.
!!LO:LB:g=original
=92	=92	=92	=92	=92	=92
*xywh-5:355,1846,4034,767	*xywh-5:355,1846,4034,767	*	*xywh-5:379,1566,3989,411	*	*
.	(8qf#/	.	.	.	.
2d 2G# 2E\	8e/L)	.	(4.fnu/	.	<
.	8d#X/J	.	.	.	.
.	2e^>/	.	.	.	.
.	.	.	8f#X/L	.	.
4AA`/	.	.	8gn/	.	.
.	.	.	8g#X/J)	.	.
=93	=93	=93	=93	=93	=93
.	(8qf#/	.	.	.	.
2c# 2A 2E\	8e/L)	.	(8av\L	.	.
.	8d#X/J	.	8a#X\	.	.
.	2e^>/	.	8b\	.	.
.	.	.	8ccn\	.	.
4AA`/	.	.	8cc#X\	.	.
.	.	.	8dd\J)	.	[[
=94	=94	=94	=94	=94	=94
.	(8qf#/	.	.	.	.
!	!	!	!	!	!LO:DY:rj
2d 2B 2E\	8e/L)	.	(8dd#Xu\L	.	f
.	8d#X/J	.	8ee\	.	.
.	2e^>/	.	8ee#X\	.	.
.	.	.	8ff#\	.	.
4AA`/	.	.	8ggn\	.	.
.	.	.	8gg#X\J)	.	.
=95	=95	=95	=95	=95	=95
!	!	!LO:DY:rj	!	!	!LO:DY:rj
2c# 2A 2E\	8eeL 8a 8e/	ff	2.aa 2.av\	.	ff
.	8dd#XJ 8a 8d#X/	.	.	.	.
.	2ee 2a 2e^^</	.	.	.	.
!	!	!LO:DY:b=2:rj	!	!	!
4AA 4AAA/	.	sf	.	.	.
=96	=96	=96	=96	=96	=96
2d 2A 2F#\	8ff#L 8a 8f#/	.	(16ff#u\KL	.	<[
.	.	.	8.aaJ 8.a\)	.	sf
.	8ee#XJ 8a 8e#X/	.	.	.	.
.	2ff# 2a 2f#^^</	.	(16eev\KL	.	<[
.	.	.	8.aaJ 8.a\)	.	sf
!	!	!LO:DY:b=2:rj	!	!	!
4AA 4AAA/	.	sf	(16ddu\KL	.	<[
.	.	.	8.aaJ 8.a\)	.	sf
=97	=97	=97	=97	=97	=97
2c# 2A 2E\	8eenL 8a 8en/	.	(16cc#v/KL	.	<[
.	.	.	8.eeJ 8.e/)	.	sf
.	8dd#XJ 8a 8d#X/	.	.	.	.
.	2ee 2a 2e^^</	.	(16bu/KL	.	<[
.	.	.	8.eeJ 8.e/)	.	sf
!	!	!LO:DY:b=2:rj	!	!	!
4AA 4AAA/	.	sf	(16av/KL	.	<[
.	.	.	8.eeJ 8.e/)	.	sf
!!LO:LB:g=original
=98	=98	=98	=98	=98	=98
*xywh-5:298,2889,4074,733	*xywh-5:298,2889,4074,733	*	*xywh-5:394,2523,3989,468	*	*
*	*	*	*	*^	*
2d 2B 2E\	8eeL 8g# 8e/	.	(16g#u/KL	.	2	<[
.	.	.	8.bJ 8.B/)	.	.	sf
.	8dd#XJ 8g# 8d#X/	.	.	.	.	.
.	2ee 2g# 2e^^</	.	(16f#v/KL	.	.	<[
.	.	.	8.bJ 8.B/)	.	.	sf
!	!	!LO:DY:b=2:rj	!	!	!	!
4AA 4AAA/	.	sf	(16eu/KL	1	.	<[
.	.	.	8.bJ 8.B/)	4	2	sf
*	*	*	*	*v	*v	*
=99	=99	=99	=99	=99	=99
.	(8qf#/	p	.	.	.
!	!	!	!	!	!LO:DY:rj
2c# 2A 2E\	8e'/L)	.	(4.c#v/	.	p
.	8d#X'/J	.	.	.	.
.	2e^>/	.	.	.	.
.	.	.	8d/L	.	.
4AA`/	.	.	8d#X/	.	.
.	.	.	8e/J)	.	.
=100	=100	=100	=100	=100	=100
.	(8qdn/	.	.	.	.
2B 2G#\	8c#'/L)	.	(4.e#Xu/	.	.
.	8B#X'/J	.	.	.	.
.	2c#^>/	.	.	.	.
.	.	.	8f#/L	.	.
4C#`/	.	.	8gn/	.	.
.	.	.	8g#X/J)	.	.
=101	=101	=101	=101	=101	=101
!	!LO:TX:a:t=un poco rallen.:dur=6q:ext=ud:problem=text with extention lines	!	!LO:TX:b:t=un poco rall.:dur=6q:ext=ud:problem=text with extention lines	!	!
.	(8qd/	.	.	.	.
!	!	!	!LO:TX:b:t=decres_cen_do.:problem=dynamics with extention lines	!	!LO:HP:t=decres_cen_do.
2A 2F#\	8c#'/L)	.	(4.av\	.	>
.	8B#X'/J	.	.	.	.
.	2c#^>/	.	.	.	.
.	.	.	8b\L	.	.
4C#`/	.	.	8b#X\	.	.
.	.	.	8cc#\J)	.	.
=102	=102	=102	=102	=102	=102
.	(8qd/	.	.	.	.
2G# 2E#X\	8c#'/L)	.	(4.ddu\	.	.
.	8B#X'/J	.	.	.	.
.	2c#^>/	.	.	.	.
.	.	.	8dd#X\L	.	.
4C#`/	.	.	8ee\	4	.
.	.	.	8ee#X\J)	4	]]
=103||	=103||	=103||	=103||	=103||	=103||
*ped	*	*	*	*	*
!	!LO:TX:a:t=tempo 1.°	!	!	!	!
4r	8aL 8c#'/	pp	(2.ff#v\	1	pp
!	!LO:TX:b:t=una corda	!	!LO:TX:b:t=delicamente.	!	!
.	8g#J 8c#'/	.	.	.	.
4r	4a 4c#'/	.	.	.	.
!	!	!LO:DY:b=2:rj	!	!	!
4F#\	4r	pp	.	.	.
*Xped	*	*	*	*	*
!!LO:LB:g=original
=104	=104	=104	=104	=104	=104
*xywh-5:330,3887,4028,683	*xywh-5:330,3887,4028,683	*	*xywh-5:371,3514,3988,473	*	*
*	*ped	*	*8va	*	*
4r	8aL 8c#'/	.	2.ccc#\	1	.
.	8g#J 8c#'/	.	.	.	.
4r	4a 4c#'/	.	.	.	.
4F#'\	4r	.	.	.	.
*	*Xped	*	*	*	*
=105	=105	=105	=105	=105	=105
*	*ped	*	*	*	*
4r	8bL 8d'/	.	2fff#\)	.	.
.	8a#XJ 8d'/	.	.	.	.
4r	4b 4d'/	.	.	.	.
4F#'\	4r	.	8eee~\L	.	.
.	.	.	8ddd~\J	.	.
*	*Xped	*	*	*	*
=106	=106	=106	=106	=106	=106
*	*ped	*	*	*	*
4r	8anL 8c#'/	.	2ccc#\	.	.
.	8g#J 8c#'/	.	.	.	.
4r	4a 4c#'/	.	.	.	.
*	*	*	*X8va	*	*
4F#'\	4r	.	4r	.	.
*	*Xped	*	*	*	*
=107	=107	=107	=107	=107	=107
*	*ped	*	*	*	*
4r	8aL 8c#/	.	(2.ff#^^<\	1	.
.	8g#J 8c#/	.	.	.	.
4r	4a 4c#/	.	.	.	.
4F#'\	4r	.	.	.	.
*	*Xped	*	*	*	*
=108	=108	=108	=108	=108	=108
*	*ped	*	*	*	*
4r	8aL 8c#'/	.	(2.ccc#\)	3	.
.	8g#J 8c#'/	.	.	.	.
4r	4a 4c#'/	.	.	.	.
4F#'\	4r	.	.	.	.
*	*Xped	*	*	*	*
=109	=109	=109	=109	=109	=109
*	*ped	*	*	*	*
4r	8g#L 8d#X^>/	.	2bb#X\)	.	.
.	8f##XJ 8d#/	.	.	.	.
4r	4g# 4d#/	.	.	.	.
4F#'\	4r	.	8dd#X\L	.	.
.	.	.	8gg#\J	.	.
*	*Xped	*	*	*	*
=110	=110	=110	=110	=110	=110
*	*ped	*	*	*	*
4r	8bL 8e#X'^>/	.	2cc#\	2	.
.	8a#XJ 8e#'/	.	.	.	.
4r	4b 4e#'/	.	.	.	.
4F#'\	4r	.	4r	.	.
*	*Xped	*	*	*	*
!!LO:LB:g=original
=111	=111	=111	=111	=111	=111
*xywh-5:351,4875,4001,812	*xywh-5:351,4875,4001,812	*	*xywh-5:446,4523,3873,467	*	*
*	*ped	*	*	*	*
4r	8anL 8f# 8c#'/	.	(2.ff#v\	.	.
.	8g#J 8c#'/	.	.	.	.
4r	4a 4c#'/	.	.	.	.
4F#'\	4r	.	.	.	.
*	*Xped	*	*	*	*
=112	=112	=112	=112	=112	=112
*	*ped	*	*	*	*
4r	8aL 8c#'/	.	(2.ccc#\)	.	.
.	8g#J 8c#'/	.	.	.	.
4r	4a 4c#'/	.	.	.	.
4F#'\	4r	.	.	.	.
*	*Xped	*	*	*	*
=113	=113	=113	=113	=113	=113
*	*ped	*	*	*	*
4r	8bL 8d/	.	2fff#\)	.	.
.	8a#XJ 8d/	.	.	.	.
4r	4b 4d/	.	.	.	.
4F#\	4r	.	8eee~\L	.	.
.	.	.	8ddd~\J	.	.
*	*Xped	*	*	*	*
=114	=114	=114	=114	=114	=114
*ped	*	*	*	*below	*
4r	8anL 8d'/	.	((2.ccc#u\	1	.
.	8g#J 8c#'/	.	.	.	.
4r	4a 4c#'/	.	.	.	.
4F#'\	4r	.	.	.	.
*Xped	*	*	*	*	*
=115	=115	=115	=115	=115	=115
*	*	*^	*	*	*
*ped	*	*	*	*	*	*
!	!LO:TX:b:t=decres_cen_do_:problem=dynamics with extention lines	!LO:HP:t=decres_cen_do_	!LO:HP:a	!LO:TX:b:t=decres_cen_do.:problem=dynamics with extention lines	!	!LO:HP:t=decres_cen_do.
!	!LO:TX:b:t=rite_nu_to.:dur=9q:ext=ud:problem=text with extention lines	!	!	!LO:TX:b:t=rite_nu_to.:dur=9q:ext=ud:problem=text with extention lines	!	!
4r	8a#XL 8c#/	>	>	2.ddd-X^\)	2	>
.	8g##XJ 8c#/	.	]	.	.	.
4r	4a# 4c#/	.	.	.	.	.
4E#X\	4r	.	.	.	.	.
*Xped	*	*	*	*	*	*
*	*	*v	*v	*	*	*
=116	=116	=116	=116	=116	=116
*ped	*	*	*	*	*
!	!	!	! 	!	!
4r	8b-XL 8d-X/	.	2.fffn\	.	.
.	8anJ 8d-/	.	.	.	.
!	! nu -	!	!	!	!
4r	4b- 4d-/	.	.	.	.
4Fn\	4r	.	.	.	.
*Xped	*	*	*	*	*
=117	=117	=117	=117	=117	=117
*ped	*	*	*	*above	*
4r	8aL 8e-X/	.	2ffn\)	1	.
.	8a-XJ 8e-/	.	.	.	.
!	! to.	!	!	!	!
4r	4an 4e-/	.	.	.	.
4Fn\	4r	.	8cccn~\L	.	.
!	!	!	! 	!	!
.	.	]]	8ddd-X~\J	.	]]
*Xped	*	*	*	*	*
!!LO:PB:g=original
=118||	=118||	=118||	=118||	=118||	=118||
*xywh-6:712,856,4045,739	*xywh-6:712,856,4045,739	*	*xywh-6:762,472,3944,519	*	*
*k[]	*k[]	*	*k[]	*	*
*ped	*	*	*	*	*
!	!LO:TX:a:t=a tempo.	!	!	!	!
4r	8b-XL 8f 8d-X/	<	(2.bb-X\	.	<
.	8aJ 8f 8d-/	.	.	.	.
4r	4b- 4f 4d-/	.	.	.	.
4B-X\	4r	.	.	.	.
*Xped	*	*	*	*	*
=119	=119	=119	=119	=119	=119
*ped	*	*	*	*	*
4r	8b-XL 8g-X/	.	8eee-X`\)	.	.
.	8aJ 8g-/	.	8r	.	.
4r	4b- 4g-/	.	4eee-\	.	.
4B-X\	4r	[[	4eee-\	.	[[
*Xped	*	*	*	*	*
=120	=120	=120	=120	=120	=120
*ped	*	*	*	*	*
4r	8b-XL 8f/	>	(2.ddd-Xu\	3	>
.	8aJ 8f/	.	.	.	.
4r	4b- 4f/	.	.	.	.
4B-X\	4r	.	.	.	.
*Xped	*	*	*	*	*
=121	=121	=121	=121	=121	=121
*ped	*	*	*	*	*
.	.	.	8qqccc/L	.	.
.	.	.	8qqddd-X/J	.	.
4r	8g-XL 8e-X/	.	4ccc\)	.	.
.	8fJ 8e-/	.	.	.	.
4r	4g- 4e-/	]	4bb-X\	.	.
4B-X\	4r	.	4ccc\	.	]
*Xped	*	*	*	*	*
=122	=122	=122	=122	=122	=122
*ped	*	*	*8va	*	*
4r	8fL 8d-X/	.	(2.ddd-Xv\	.	.
.	8enJ 8d-/	.	.	.	.
4r	4f 4d-/	.	.	.	.
4B-X\	4r	.	.	.	.
*Xped	*	*	*	*	*
=123	=123	=123	=123	=123	=123
*ped	*	*	*	*	*
4r	8b-XL 8g-X/	<	4eee-X\)	2	<
.	8aJ 8g-/	.	.	.	.
.	.	.	(8qqeee-~>/L	.	.
.	.	.	8qqggg-X/J	.	.
4r	4b- 4g-/	.	4fff\	.	.
4B-X\	4r	[[	4eee-\)	.	[[
*Xped	*	*	*	*	*
!!LO:LB:g=original
=124	=124	=124	=124	=124	=124
*xywh-6:746,1883,4057,710	*xywh-6:746,1883,4057,710	*	*xywh-6:762,1560,3966,366	*	*
*ped	*	*	*	*below	*
!	!LO:TX:b:t=decres_cen_do:problem=dynamics with extention lines	!LO:HP:t=decres_cen_do	!	!	!
4r	8b-XL 8f#X/	>	(2.ddd-Xv\	2	>
.	8aJ 8f#/	.	.	.	.
4r	4b- 4f#/	.	.	.	.
4B-X\	4r	.	.	.	.
*Xped	*	*	*	*	*
=125	=125	=125	=125	=125	=125
*ped	*	*	*	*above	*
4r	8g-XL 8e-X/	.	4ccc\	3	.
.	8fJ 8e-/	.	.	.	.
.	.	.	8qqddd-X/L	.	.
.	.	.	8qqccc/J	.	.
4r	4g- 4e-/	.	8bb-X\)	.	.
.	.	.	8r	.	.
4B-X\	4r	.	4ccc~u\	.	]
*Xped	*	*	*	*	*
=126	=126	=126	=126	=126	=126
*ped	*	*	*	*	*
4r	8fL 8d-X/	.	(2.ddd-Xv\	.	.
.	8enJ 8d-/	.	.	.	.
4r	4f 4d-/	.	.	.	.
4B-X\	4r	]	.	.	.
*Xped	*	*	*X8va	*	*
=127	=127	=127	=127	=127	=127
*ped	*	*	*	*	*
!	!LO:TX:a:t=lento.	!	!	!	!LO:DY:rj
4r	8gnL 8en/	mf >	8cc#X\)	.	mf
.	8f#XJ 8e/	.	8r	.	.
4r	4g 4e/	.	[4cc#'~u\	.	.
4A#X^<\	4r	.	4cc#'~\]	.	.
*Xped	*	*	*	*	*
=128	=128	=128	=128	=128	=128
*ped	*	*	*	*	*
!	!LO:TX:a:t=a tempo.	!	!	!	!
4r	8g#XL 8e#X/	.	[2.cc#X^<v\	2	.
.	8f##XJ 8e#/	.	.	.	.
4r	4g# 4e#/	]	.	.	.
4B\	4r	.	.	.	.
*Xped	*	*	*	*	*
=129	=129	=129	=129	=129	=129
*ped	*	*	*	*	*
!	!	!	!	!	!LO:DY:rj
4r	8g#XL 8e#X/	pp	4cc#X\]	1	pp
.	8f##XJ 8e#/	.	.	.	.
.	.	.	(8qqcc#u/L	.	.
*	*	*	*	*below	*
.	.	.	8qqee#X/J	3	.
4r	4g# 4e#/	.	4dd#X\	.	.
!	!	!LO:DY:b=2:rj	!	!	!
4B\	4r	pp	4cc#\)	.	.
*Xped	*	*	*	*	*
!!LO:LB:g=original
=130	=130	=130	=130	=130	=130
*xywh-6:779,2904,3927,682	*xywh-6:779,2904,3927,682	*	*xywh-6:774,2583,3910,400	*	*
*ped	*	*	*	*above	*
4r	8a-XL 8fn/	.	[2.ccn^<v\	1	.
.	8gnJ 8f/	.	.	.	.
4r	4a- 4f/	.	.	.	.
4c\	4r	.	.	.	.
*Xped	*	*	*	*	*
=131	=131	=131	=131	=131	=131
*ped	*	*	*	*	*
4r	8a-XL 8f/	.	8cc\]	2	.
.	8gnJ 8f/	.	8r	.	.
!	!LO:TX:b:t=un_poco_cres_cen_do.:problem=dynamics with extention lines	!LO:HP:t=un_poco_cres_cen_do.	!LO:TX:b:t=un_poco_cres_cen_do.:problem=dynamics with extention lines	!	!LO:HP:t=un_poco_cres_cen_do.
4r	4a- 4f/	<	[4cc'~u\	.	<
4c\	4r	.	4cc'~\]	.	.
*Xped	*	*	*	*	*
=132	=132	=132	=132	=132	=132
*ped	*	*	*	*	*
4r	8a-XL 8f/	.	[2.cc-X^\	1	.
.	8gJ 8f/	.	.	.	.
4r	4a- 4f/	.	.	.	.
4d-X\	4r	.	.	.	.
*Xped	*	*	*	*	*
=133	=133	=133	=133	=133	=133
*ped	*	*	*	*	*
4r	8a-XL 8f/	.	4cc-X\]	2	.
.	8gJ 8f/	.	.	.	.
.	.	.	(8qqcc-/L	.	.
.	.	.	8qqee-X/J	.	.
4r	4a- 4f/	.	4dd-X\	.	.
4d-X\	4r	.	4cc-X\)	.	.
*Xped	*	*	*	*	*
=134	=134	=134	=134	=134	=134
*ped	*	*	*	*	*
4r	8a-XL 8f/	.	(2b-X\	1	.
.	8gJ 8f/	.	.	.	.
!	!	!	!LO:TX:b:t=sul D:dur=19q:ext=ud:problem=text with extention lines	!	!
4r	4a- 4f/	[	.	.	[
4dn\	4r	.	[4b-\	2	.
*Xped	*	*	*	*	*
=135	=135	=135	=135	=135	=135
*ped	*	*	*	*	*
.	.	.	8qqb-X/L]	.	.
.	.	.	8qqdd-X/J	.	p
!	!LO:TX:b:t=poco rall.	!LO:DY:rj	!LO:TX:b:t=poco rall.	!	!
4r	8a-XL 8f/	p	2cc-X^\)	.	.
.	8gJ 8f/	.	.	.	.
4r	4a- 4f/	.	.	.	.
!	!	!LO:DY:b=2:rj	!	!	!
4d\	4r	pp	4b-X~\	.	.
*Xped	*	*	*	*	*
!!LO:LB:g=original
=136	=136	=136	=136	=136	=136
*xywh-6:768,3897,3933,688	*xywh-6:768,3897,3933,688	*	*xywh-6:802,3603,3910,411	*	*
*	*ped	*	*	*	*
!	!LO:TX:a:t=a tempo.	!	!	!	!LO:DY:rj
4r	8g-XL 8e-X/	pp	(2.b-Xv\	.	pp
.	8fJ 8e-/	.	.	.	.
4r	4g- 4e-/	.	.	.	.
4E-X\	4r	.	.	.	.
*	*Xped	*	*	*	*
=137	=137	=137	=137	=137	=137
*	*ped	*	*	*	*
4r	8a-XL 8e-X/	>	8cc-X`\)	2	.
.	8gnJ 8e-/	.	8r	.	.
4r	4a- 4e-/	.	(4cc-u\	.	<
4E-X\	4r	]	4ee-X^\)	.	[
*	*Xped	*	*	*	*
=138	=138	=138	=138	=138	=138
*	*ped	*	*	*	*
4r	8g-XL 8e-X/	.	(2.b-Xv\	1	.
.	8fJ 8e-/	.	.	.	.
4r	4g- 4e-/	.	.	.	.
4E-X\	4r	.	.	.	.
*	*Xped	*	*	*	*
=139	=139	=139	=139	=139	=139
*	*^	*	*	*	*
*	*ped	*	*	*	*	*
4r	8f/L	8e\L	.	8a-X`\)	2	.
.	8en/J	8e\J	.	8r	.	.
4r	4f/	4e-X\	.	(4a-u\	.	<
4E-X\	4r	4ryy	.	4cc-X^\)	.	[[
*	*Xped	*	*	*	*	*
*	*v	*v	*	*	*	*
=140	=140	=140	=140	=140	=140
*	*ped	*	*	*	*
4r	8g-XL 8e-X/	.	(2.b-Xv\	.	.
.	8fJ 8e-/	.	.	.	.
4r	4g- 4e-/	.	.	.	.
4E-X\	4r	.	.	.	.
*	*Xped	*	*	*	*
=141	=141	=141	=141	=141	=141
*	*ped	*	*	*	*
!	!	!	!LO:TX:b:t=sul D:dur=25q:ext=ud:problem=text with extention lines	!	!
4r	8a-XL 8e-X/	>	8cc-X`\)	2	.
.	8gnJ 8e-/	.	8r	.	.
4r	4a- 4e-/	.	(4cc-u\	.	<
4E-X\	4r	]	4ee-X^\)	.	[[
*	*Xped	*	*	*	*
!!LO:LB:g=original
=142	=142	=142	=142	=142	=142
*xywh-6:745,4964,3978,761	*xywh-6:745,4964,3978,761	*	*xywh-6:802,4580,3887,423	*	*
*	*ped	*	*	*	*
4r	8g-XL 8e-X/	.	(2.b-Xv\	.	.
.	8fJ 8e-/	.	.	.	.
4r	4g- 4e-/	.	.	.	.
4E-X\	4r	.	.	.	.
*	*Xped	*	*	*	*
=143	=143	=143	=143	=143	=143
*	*^	*	*	*	*
*	*ped	*	*	*	*	*
4r	8f/L	8e\L	.	8a-X`\)	.	.
.	8en/J	8e\J	.	8r	.	.
4r	4f/	4e-X\	.	(4a-u\	.	<
4E-X\	4r	4ryy	.	4cc-X^\)	.	[
*	*Xped	*	*	*	*	*
*	*v	*v	*	*	*	*
=144	=144	=144	=144	=144	=144
*	*ped	*	*	*	*
4r	8g-XL 8e-X/	.	(2.b-Xv\	.	.
.	8fJ 8e-/	.	.	.	.
4r	4g- 4e-/	.	.	.	.
4E-X\	4r	.	.	.	.
*	*Xped	*	*	*	*
=145	=145	=145	=145	=145	=145
*	*ped	*	*	*	*
!	!LO:TX:b:t=poco_a_poco_cres_cen_do.:problem=dynamics with extention lines	!LO:HP:t=poco_a_poco_cres_cen_do.	!	!	!
4r	8a-XL 8e-X/	<	8cc-X`\)	.	.
!	!	!	!LO:TX:b:t=poco_a_poco_cres_cen_do.:problem=dynamics with extention lines	!LO:HP:t=poco_a_poco_cres_cen_do.	!
.	8gnJ 8e-/	.	8r	.	<
4r	4a- 4e-/	.	(4cc-u\	.	.
4E-X\	4r	.	4ee-X^\)	.	.
=146	=146	=146	=146	=146	=146
4r	8a-XL 8e-X/	.	(2.cc-Xv\	2	.
.	8gnJ 8e-/	.	.	.	.
4r	4a- 4e-/	.	.	.	.
4EE-X^/	4r	.	.	.	.
*	*Xped	*	*	*	*
=147	=147	=147	=147	=147	=147
*	*ped	*	*	*	*
4r	8anL 8e-X/	.	8ccn`\)	2	.
.	8a-XJ 8e-/	.	8r	.	.
4r	4an 4e-/	.	(4ccu\	.	.
4E-X\	4r	.	4ee-X^\)	.	.
!!LO:PB:g=original
=148	=148	=148	=148	=148	=148
*xywh-7:430,906,3815,759	*xywh-7:430,906,3815,759	*	*xywh-7:380,529,3967,455	*	*
4r	8anL 8e-X/	.	(2.ccv\	.	.
.	8a-XJ 8e-/	.	.	.	.
4r	4an 4e-/	.	.	.	.
4EE-X^/	4r	.	.	.	.
*	*Xped	*	*	*	*
=149	=149	=149	=149	=149	=149
*	*ped	*	*	*	*
4r	8b-XL 8e-X/	.	8dd-X`\)	.	.
.	8aJ 8e-/	.	8r	.	.
!	!	!	!LO:TX:b:t=sul A:dur=6q:ext=ud:problem=text with extention lines	!	!
4r	4b- 4e-/	.	(4dd-u\	.	.
4E-X\	4r	.	4ee-X^\)	.	.
*	*Xped	*	*	*	*
=150	=150	=150	=150	=150	=150
*	*ped	*	*	*	*
4r	8bnL 8e-X/	.	8ddn|v\	.	.
.	8b-XJ 8e-/	[	8r	.	[
!	!	!	!LO:TX:b:t=rite_nu_to.:dur=8q:ext=ud:problem=text with extention lines	!	!
4r	4bn 4e-/	.	(4ddu\	.	.
4EE-X^/	4r	.	4ee-X\)	.	.
*	*Xped	*	*	*	*
=151	=151	=151	=151	=151	=151
*	*ped	*	*	*	*
!	!LO:TX:b:t=rite_nu_to.:dur=6q:ext=ud:problem=text with extention lines	!	!	!	!
4r	8ccL 8e-X^>/	<	4ee-Xv\	.	.
.	8bJ 8e-^>/	.	.	.	.
!	!	!	!	!	!LO:DY:rj
4r	4cc 4e-^>/	.	4ee- 4e-Xu\	.	f
!	!	!	!	!	!LO:DY:rj
4E-X 4EE-X^/	4dd-X 4e-^>/	[[	4ff-X 4f-Xv\	.	f
*	*Xped	*	*	*	*
=152	=152	=152	=152	=152	=152
!	!	!	!	!	!LO:DY:rj
4r	8ddL 8e-X^>/	f	4ffn 4fnu\	.	f
.	8dd-XJ 8e-^>/	.	.	.	.
!	!	!	!	!	!LO:DY:rj
4r	4ddn 4e-^>/	.	4ff 4fv\	.	f
!	!	!	!	!	!LO:DY:rj
4E-X 4EE-X^/	4ee-X 4dd-X 4e-^>/	.	4gg 4gu\	.	f
=153||	=153||	=153||	=153||	=153||	=153||
*k[b-e-a-d-]	*k[b-e-a-d-]	*	*k[b-e-a-d-]	*	*
!	!	!	!LO:TX:b:t=a tempo.	!	!
!	!	!LO:DY:rj	!LO:TX:a:t=con energia.	!	!LO:DY:rj
2c 2A- 2E-\	8ee-L 8cc 8a- 8e-^/	ff	2.aa- 2.a-^\	.	ff
!	!LO:TX:b:t=con energia	!	!	!	!
.	8ddnJ 8a- 8dn/	.	.	.	.
.	2ee- 2a- 2e-^^</	.	.	.	.
!	!	!LO:DY:b=2:rj	!	!	!
4AA- 4AAA-/	.	sf	.	.	.
!!LO:LB:g=original
=154	=154	=154	=154	=154	=154
*xywh-7:374,1907,3950,759	*xywh-7:374,1907,3950,759	*	*xywh-7:368,1576,3950,433	*	*
*	*	*	*	*^	*
2d- 2A- 2F^<\	8ffL 8a- 8f\	.	(16ffu\KL	.	.	<[
.	.	.	8.aa-J 8.a-\)	.	.	sf
.	8eenJ 8a- 8en\	.	.	.	.	.
.	2ff 2a- 2f^^\	.	(16ee-v\KL	.	.	<[
.	.	.	8.aa-J 8.a-\)	.	.	sf
!	!	!LO:DY:b=2:rj	!	!	!	!
4AA- 4AAA-/	.	sf	(16dd-u\KL	1	.	<[
.	.	.	8.aa-J 8.a-\)	4	2	sf
*	*	*	*	*v	*v	*
=155	=155	=155	=155	=155	=155
*	*	*	*	*below	*
2c 2A- 2E-^<\	8ee-XL 8a- 8e-X\	.	(16cc/KL	2	<[
.	.	.	8.ee-J 8.e-/)	.	sf
.	8ddnJ 8a- 8dn\	.	.	.	.
.	2ee- 2a- 2e-^^\	.	(16b-/KL	.	<[
.	.	.	8.ee-J 8.e-/)	.	sf
!	!	!LO:DY:b=2:rj	!	!	!
4AA- 4AAA-/	.	sf	(16a-/KL	4	<[
.	.	.	8.ee-J 8.e-/)	.	sf
=156	=156	=156	=156	=156	=156
*	*	*	*	*^	*
2d- 2B- 2E-^<\	8ee-L 8g 8e-\	.	(16g/KL	.	2	<[
.	.	.	8.b-J 8.B-/)	.	.	sf
.	8ddnJ 8g 8dn\	.	.	.	.	.
.	2ee- 2g 2e-^^\	.	(16f/KL	.	.	<[
.	.	.	8.b-J 8.B-/)	.	.	sf
!	!	!LO:DY:b=2:rj	!	!	!	!
4AA- 4AAA-/	.	sf	(16e-/KL	1	.	<[
.	.	.	8.b-J 8.B-/)	4	2	sf
*	*	*	*	*v	*v	*
*	*clefF4	*	*	*	*
=157	=157	=157	=157	=157	=157
*	*	*	*	*above	*
8CL 8AA-/	(4.E-^\	pp	(4.cv/	1	p
8CJ 8AA-/	.	.	.	.	.
4C 4AA-/	.	.	.	.	.
!	!LO:TX:b:t=cres_cen_do.:problem=dynamics with extention lines	!LO:HP:t=cres_cen_do.	!LO:TX:b:t=cres_cen_do.:problem=dynamics with extention lines	!	!LO:HP:t=cres_cen_do.
.	8En\L	<	8d-/L	.	<
4C 4AA-^/	8F\	.	8dn/	.	.
.	8G-X\J)	.	8e-/J)	.	.
=158	=158	=158	=158	=158	=158
*	*	*	*	*below	*
8E-L 8D- 8AA-/	(4.Gn^\	.	(4.enu/	3	.
8E-J 8D- 8AA-/	.	.	.	.	.
4E- 4D- 4AA-/	.	.	.	.	.
.	8A-\L	.	8f/L	.	.
4E- 4D- 4AA-^/	8An\	.	8g-X/	.	.
.	8B-\J)	.	8gn/J)	.	.
*	*clefG2	*	*	*	*
=159	=159	=159	=159	=159	=159
8A-L 8E- 8C 8AA-\	(>8c-X/L	.	(8a-v\L	.	.
8A-J 8E- 8C 8AA-\	8cn/	.	8an\	.	.
4A- 4E- 4C 4AA-\	8d-/	.	8b-\	.	.
.	8dn/	.	8bn\	.	.
4A- 4E- 4C 4AA-^<\	8e-/	.	8cc\	.	.
.	8en/J	[	8dd-\J)	.	[[
!!LO:LB:g=original
=160	=160	=160	=160	=160	=160
*xywh-7:357,2914,3955,742	*xywh-7:357,2914,3955,742	*	*xywh-7:374,2611,3927,382	*	*
!	!	!	!	!	!LO:DY:rj
8GL 8E- 8D- 8AA-\	8f/L	.	(8ddnu<\L	.	f
8GJ 8E- 8D- 8AA-\	8g-X/	.	8ee-\	.	.
4G 4E- 4D- 4AA-\	8gn/	.	8een\	2	.
.	8a-/	.	8ff\	.	.
4G 4E- 4D- 4AA-\	8an/	.	8gg-X\	.	.
.	8b-/J)	.	8ggn\J)	.	.
=161	=161	=161	=161	=161	=161
!	!	!LO:DY:rj	!	!	!LO:DY:rj
2c 2A- 2E-\	8ee-L 8cc 8a- 8e-\	ff	2.aa-^ 2.a-^^<\	.	ff
.	8ddnJ 8a- 8dn\	.	.	.	.
.	2ee- 2a- 2e-^^\	.	.	.	.
!	!	!LO:DY:b=2:rj	!	!	!
4AA- 4AAA-/	.	sf	.	.	.
=162	=162	=162	=162	=162	=162
2d- 2A- 2F\	8ffL 8a- 8f\	.	(16ffu\KL	.	<[
.	.	.	8.aa-J 8.a-\)	.	sf
.	8eenJ 8a- 8en\	.	.	.	.
.	2ee-X 2a- 2f^^\	.	(16ee-v\KL	.	<[
.	.	.	8.aa-J 8.a-\)	.	sf
!	!	!LO:DY:b=2:rj	!	!	!
4AA- 4AAA-/	.	sf	(16dd-u\KL	.	<[
.	.	.	8.aa-J 8.a-\)	.	sf
=163	=163	=163	=163	=163	=163
2c 2A- 2E-\	8ee-XL 8a- 8e-X\	.	(16ccv/KL	.	<[
.	.	.	8.ee-J 8.e-/)	.	sf
.	8ddnJ 8a- 8dn\	.	.	.	.
.	2ee- 2a- 2e-^^\	.	(16b-u/KL	.	<[
.	.	.	8.ee-J 8.e-/)	.	sf
!	!	!LO:DY:b=2:rj	!	!	!
4AA- 4AAA-/	.	sf	(16a-v/KL	.	<[
.	.	.	8.ee-J 8.e-/)	.	sf
=164	=164	=164	=164	=164	=164
2d- 2B- 2E-\	8ee-L 8g 8e-\	.	(16g/KL	.	<[
.	.	.	8.b-J 8.B-/)	.	sf
.	8ddnJ 8g 8dn\	.	.	.	.
.	2ee- 2g 2e-^^\	.	(16f/KL	.	<[
.	.	.	8.b-J 8.B-/)	.	sf
!	!	!LO:DY:b=2:rj	!	!	!
4AA- 4AAA-/	.	sf	(16e-/KL	.	<[
.	.	.	8.b-J 8.B-/)	.	sf
*	*clefF4	*	*	*	*
=165	=165	=165	=165	=165	=165
8CL 8AA-'/	(4.E-^\	pp	(4.cv/	1	p
8CJ 8AA-'/	.	.	.	.	.
4C 4AA-'/	.	.	.	.	.
!	!LO:TX:b:t=cres_cen_do.:problem=dynamics with extention lines	!LO:HP:t=cres_cen_do.	!LO:TX:b:t=cres_cen_do:problem=dynamics with extention lines	!	!LO:HP:t=cres_cen_do
.	8En\L	<	8d-/L	.	<
4C 4AA-^/	8F\	.	8dn/	.	.
.	8G-X\J)	.	8e-/J)	.	.
!!LO:LB:g=original
=166	=166	=166	=166	=166	=166
*xywh-7:313,3888,3984,787	*xywh-7:313,3888,3984,787	*	*xywh-7:393,3596,3927,393	*	*
8E-L 8D- 8AA-'/	(4.Gn^\	.	(4.enu/	3	.
8E-J 8D- 8AA-'/	.	.	.	.	.
4E- 4D- 4AA-'/	.	.	.	.	.
.	8A-\L	.	8f/L	.	.
4E- 4D- 4AA-^/	8An\	.	8g-X/	.	.
.	8B-\J)	.	8gn/J)	.	.
*	*clefG2	*	*	*	*
=167	=167	=167	=167	=167	=167
8B-L 8E- 8C 8AA-'\	(>8c-X/L	.	(8a-v\L	.	.
8B-J 8E- 8C 8AA-'\	8cn/	.	8an\	.	.
4B- 4E- 4C 4AA-'\	8d-/	.	8b-\	.	.
.	8dn/	.	8bn\	.	.
4B- 4E- 4C 4AA-^<\	8e-/	.	8cc\	.	.
.	8en/J	[	8dd-\J)	.	[
=168	=168	=168	=168	=168	=168
!	!	!	!	!	!LO:DY:rj
8GL 8E- 8D- 8AA-\	8f/L	f	(8ddnu<\L	.	f
8GJ 8E- 8D- 8AA-\	8g-X/	.	8ee-\	.	.
*	*	*	*	*above	*
4G 4E- 4D- 4AA-\	8gn/	.	8een\	2	.
.	8a-/	.	8ff\	.	.
4G 4E- 4D- 4AA-\	8an/	.	8gg-X\	.	.
.	8b-/J)	.	8ggn\J)	.	.
=169	=169	=169	=169	=169	=169
!	!	!LO:DY:rj	!	!	!LO:DY:rj
2c 2A- 2E-\	8ee-L 8cc 8a- 8e-\	ff	2.aa- 2.a-v\	.	ff
.	8ddnJ 8a- 8dn\	.	.	.	.
.	2ee- 2a- 2e-^^\	.	.	.	.
!	!	!LO:DY:b=2:rj	!	!	!
4AA- 4AAA-/	.	sf	.	.	.
=170	=170	=170	=170	=170	=170
2d- 2A- 2F\	8ffL 8a- 8f\	.	(16ffu\KL	.	<[
.	.	.	8.aa-J 8.a-\)	.	sf
.	8eenJ 8a- 8en\	.	.	.	.
.	2ff 2a- 2f^^\	.	(16ee-v\KL	.	<[
.	.	.	8.aa-J 8.a-\)	.	sf
!	!	!LO:DY:b=2:rj	!	!	!
4AA- 4AAA-/	.	sf	(16dd-u\KL	1	<[
.	.	.	8.aa-J 8.a-\)	4	sf
=171	=171	=171	=171	=171	=171
*	*	*	*	*^	*
2c 2A- 2E-\	8ee-XL 8a- 8e-X\	.	(16ccv\KL	1	.	<[
.	.	.	8.aa-J 8.a-\)	4	2	sf
.	8ddnJ 8a- 8dn\	.	.	.	.	.
.	2ee- 2a- 2e-^^\	.	2aa- 2a-^<u\	.	.	.
4AA- 4AAA-/	.	.	.	.	.	.
*	*	*	*	*v	*v	*
!!LO:LB:g=original
=172	=172	=172	=172	=172	=172
*xywh-7:346,4940,4012,815	*xywh-7:346,4940,4012,815	*	*xywh-7:425,4614,3860,332	*	*
2d- 2A- 2F-X\	8ff-XL 8a- 8f-X\	.	(16ff-Xv\KL	2	<[
.	.	.	8.aa-J 8.a-\)	.	sf
.	8ee-J 8a- 8e-\	.	.	.	.
.	2ff- 2a- 2f-^^\	.	(16ee-u\KL	.	<[
.	.	.	8.aa-J 8.a-\)	.	sf
!	!	!LO:DY:b=2	!	!	!
4AA- 4AAA-/	.	sf	(16dd-v\KL	.	<[
.	.	.	8.aa-J 8.a-\)	.	sf
=173	=173	=173	=173	=173	=173
4c 4A- 4E-\	4ee- 4cc 4a- 4e-^^\	.	(16ccv\KL	1	<[
.	.	.	8.aa-J 8.a-\)	.	sf
4D- 4DD-^^</	4ffn 4dd- 4a- 4fn^^\	.	(16ffnu\KL	.	<[
.	.	.	8.aa-J 8.a-\)	.	sf
4A- 4AA-^^\	4ee- 4cc 4a- 4e-^^\	.	(16ee-v\KL	.	<[
.	.	.	8.aa-J 8.a-\)	.	sf
=174	=174	=174	=174	=174	=174
4D- 4DD-^^</	4ff-X 4dd- 4a- 4f-X^^\	.	(16ff-Xu\KL	.	<[
.	.	.	8.aa-J 8.a-\)	.	sf
4A- 4AA-^^\	4ee- 4cc 4a- 4e-^^\	.	(16ee-v\KL	.	<[
.	.	.	8.aa-J 8.a-\)	.	sf
4D- 4DD-^^</	4ffn 4dd- 4a- 4fn^^\	.	(16ffnu\KL	.	<[
.	.	.	8.aa-J 8.a-\)	.	sf
=175	=175	=175	=175	=175	=175
!	!	!	!	!	!LO:DY:t=sff
.	.	.	(8qee-/	.	sf
4A- 4AA-^^\	4ee- 4cc 4a- 4e-^^\	.	4aa- 4a-\)	.	.
!	!LO:TX:b:t=pesante.	!LO:DY:rj	!	!	!
4AA- 4AAA-^^</	4aa- 4a-^^\	ff	4r	.	.
4AA- 4AAA-^^</	4aa- 4a-^^\	.	4r	.	.
=176	=176	=176	=176	=176	=176
4AA- 4AAA-^^</	4aa- 4a-^^\	.	2.r	.	.
4AA- 4AAA-^^</	4aa- 4a-^^\	.	.	.	.
4AA- 4AAA-^^</	4aa- 4a-^^\	.	.	.	.
=177	=177	=177	=177	=177	=177
!	!	!LO:DY:t=sff	!	!	!
4AA- 4AAA-^^</	4aa- 4a-^^\	sf	4r	.	.
!	!LO:TX:b:t=calando.	!	!LO:TX:b:t=calando:dur=5q:ext=ud:problem=text with extention lines	!	!LO:DY:rj
4r	4r	.	4gg#X\	.	p
4r	4r	.	4gg#\	.	.
=178	=178	=178	=178	=178	=178
2.r	2.r	.	4gg#X\	.	.
.	.	.	4gg#\	.	.
*kcancel	*kcancel	*	*kcancel	*	*
.	.	.	4gg#\	.	.
!!LO:PB:g=original
=179||	=179||	=179||	=179||	=179||	=179||
*k[f#c#g#]	*k[f#c#g#]	*	*k[f#c#g#]	*	*
*	*	*^	*	*	*
*	*tremolo	*	*	*8va	*	*
*	*ped	*	*	*	*	*
!LO:TX:b:t=una corda.	!LO:TX:a:rj:t=Andantino.	!LO:DY:rj	!LO:DY:b=2:rj	!LO:TX:a:t=tranquillo.	!	!LO:DY:rj
*xywh-8:840,833,3932,830	*xywh-8:840,833,3932,830	*xywh-8:840,833,3932,830	*	*xywh-8:800,488,4022,491	*	*
8AA`\L	(16cc#LL 16e/	pp	pp	2.aa\	.	p
.	16c#/	.	.	.	.	.
8C#`\	16cc# 16e/	.	.	.	.	.
.	16c#/	.	.	.	.	.
8E`\	16cc# 16e/	.	.	.	.	.
.	16c#/	.	.	.	.	.
8A`\	16cc# 16e/	.	.	.	.	.
.	16c#/	.	.	.	.	.
8E`\	16cc# 16e/	.	.	.	.	.
.	16c#/	.	.	.	.	.
8C#`\J	16cc# 16e/	.	.	.	.	.
.	16c#/JJ)	.	.	.	.	.
*	*	*v	*v	*	*	*
=180	=180	=180	=180	=180	=180
8AA`\L	(16cc#LL 16e/	.	2.eee\	.	.
.	16c#/	.	.	.	.
8C#`\	16cc# 16e/	.	.	.	.
.	16c#/	.	.	.	.
8E`\	16cc# 16e/	.	.	.	.
.	16c#/	.	.	.	.
8A`\	16cc# 16e/	.	.	.	.
.	16c#/	.	.	.	.
8E`\	16cc# 16e/	.	.	.	.
.	16c#/	.	.	.	.
*	*Xped	*	*	*	*
8C#`\J	16cc# 16e/	.	.	.	.
.	16c#/JJ)	.	.	.	.
=181	=181	=181	=181	=181	=181
*	*ped	*	*	*	*
8AA`\L	(16ddLL 16f#/	.	2aaa\	.	.
.	16d/	.	.	.	.
8D`\	16dd 16f#/	.	.	.	.
.	16d/	.	.	.	.
8F#`\	16dd 16f#/	.	.	.	.
.	16d/	.	.	.	.
8A`\	16dd 16f#/	.	.	.	.
.	16d/	.	.	.	.
8F#`\	16dd 16f#/	.	8ggg#\L	.	.
.	16d/	.	.	.	.
*	*Xped	*	*	*	*
8D`\J	16dd 16f#/	.	8fff#\J	.	.
.	16d/JJ)	.	.	.	.
=182	=182	=182	=182	=182	=182
*	*ped	*	*	*	*
8AA`\L	(16cc#LL 16e/	.	2.eee\	.	.
.	16c#/	.	.	.	.
8C#`\	16cc# 16e/	.	.	.	.
.	16c#/	.	.	.	.
8E`\	16cc# 16e/	.	.	.	.
.	16c#/	.	.	.	.
8A`\	16cc# 16e/	.	.	.	.
.	16c#/	.	.	.	.
8E`\	16cc# 16e/	.	.	.	.
.	16c#/	.	.	.	.
*	*Xped	*	*	*	*
8C#`\J	16cc# 16e/	.	.	.	.
.	16c#/JJ)	.	.	.	.
=183	=183	=183	=183	=183	=183
*	*ped	*	*	*	*
8C#`\L	(16eeLL 16a/	.	2.aa\	.	.
.	16e/	.	.	.	.
8E`\	16ee 16a/	.	.	.	.
.	16e/	.	.	.	.
8A`\	16ee 16a/	.	.	.	.
.	16e/	.	.	.	.
8c#`\	16ee 16a/	.	.	.	.
.	16e/	.	.	.	.
8A`\	16ee 16a/	.	.	.	.
.	16e/	.	.	.	.
8E`\J	16ee 16a/	.	.	.	.
.	16e/JJ)	.	.	.	.
=184	=184	=184	=184	=184	=184
8AA`\L	(16cc#LL 16a/	.	2.eee\	.	.
.	16c#/	.	.	.	.
8C#`\	16cc# 16a/	.	.	.	.
.	16c#/	.	.	.	.
8E`\	16cc# 16a/	.	.	.	.
.	16c#/	.	.	.	.
8A`\	16cc# 16a/	.	.	.	.
.	16c#/	.	.	.	.
8E`\	16cc# 16a/	.	.	.	.
.	16c#/	.	.	.	.
*	*Xped	*	*	*	*
8C#`\J	16cc# 16a/	.	.	.	.
.	16c#/JJ)	.	.	.	.
!!LO:LB:g=original
=185	=185	=185	=185	=185	=185
*xywh-8:806,1868,3966,790	*xywh-8:806,1868,3966,790	*	*xywh-8:840,1619,3898,299	*	*
*	*ped	*	*	*	*
8EE`\L	(16bLL 16a/	.	2ddd\	.	.
.	16d/	.	.	.	.
8BB`\	16b 16a/	.	.	.	.
.	16d/	.	.	.	.
8D`\	16b 16a/	.	.	.	.
.	16d/	.	.	.	.
8A`\	16b 16a/	.	.	.	.
.	16d/	.	.	.	.
8D`\	16b 16a/	.	8ff#/L	.	.
.	16d/	.	.	.	.
*	*Xped	*	*	*	*
8BB`\J	16b 16a/	.	8bb/J	.	.
.	16d/JJ)	.	.	.	.
=186	=186	=186	=186	=186	=186
*	*ped	*	*	*	*
8EE`\L	(16bLL 16g#/	.	2.ee/	.	.
.	16d/	.	.	.	.
8BB`\	16b 16g#/	.	.	.	.
.	16d/	.	.	.	.
8D`\	16b 16g#/	.	.	.	.
.	16d/	.	.	.	.
8G#`\	16b 16g#/	.	.	.	.
.	16d/	.	.	.	.
8D`\	16b 16g#/	.	.	.	.
.	16d/	.	.	.	.
*	*Xped	*	*	*	*
8BB`\J	16b 16g#/	.	.	.	.
.	16d/JJ)	.	.	.	.
=187	=187	=187	=187	=187	=187
*	*ped	*	*	*	*
!LO:TX:b:t=il Basso semp&colon; staccato.	!	!	!	!	!
8AA`\L	(16cc#LL 16e/	.	2.aa\	.	.
.	16c#/	.	.	.	.
8C#`\	16cc# 16e/	.	.	.	.
.	16c#/	.	.	.	.
8E`\	16cc# 16e/	.	.	.	.
.	16c#/	.	.	.	.
8A`\	16cc# 16e/	.	.	.	.
.	16c#/	.	.	.	.
8E`\	16cc# 16e/	.	.	.	.
.	16c#/	.	.	.	.
8C#`\J	16cc# 16e/	.	.	.	.
.	16c#/JJ)	.	.	.	.
=188	=188	=188	=188	=188	=188
8AA`\L	(16cc#LL 16e/	.	2.eee\	.	.
.	16c#/	.	.	.	.
8C#`\	16cc# 16e/	.	.	.	.
.	16c#/	.	.	.	.
8E`\	16cc# 16e/	.	.	.	.
.	16c#/	.	.	.	.
8A`\	16cc# 16e/	.	.	.	.
.	16c#/	.	.	.	.
8E`\	16cc# 16e/	.	.	.	.
.	16c#/	.	.	.	.
*	*Xped	*	*	*	*
8C#`\J	16cc# 16e/	.	.	.	.
.	16c#/JJ)	.	.	.	.
=189	=189	=189	=189	=189	=189
*	*ped	*	*	*	*
8AA\L	(16ddLL 16f#/	.	2aaa\	.	.
.	16d/	.	.	.	.
8D\	16dd 16f#/	.	.	.	.
.	16d/	.	.	.	.
8F#\	16dd 16f#/	.	.	.	.
.	16d/	.	.	.	.
8A\	16dd 16f#/	.	.	.	.
.	16d/	.	.	.	.
8F#\	16dd 16f#/	.	8ggg#\L	.	.
.	16d/	.	.	.	.
*	*Xped	*	*	*	*
8D\J	16dd 16f#/	.	8fff#\J	.	.
.	16d/JJ)	.	.	.	.
=190	=190	=190	=190	=190	=190
*	*ped	*	*	*	*
8AA\L	(16cc#LL 16e/	.	2.eee\	.	.
.	16c#/	.	.	.	.
8C#\	16cc# 16e/	.	.	.	.
.	16c#/	.	.	.	.
8E\	16cc# 16e/	.	.	.	.
.	16c#/	.	.	.	.
8A\	16cc# 16e/	.	.	.	.
.	16c#/	.	.	.	.
8E\	16cc# 16e/	.	.	.	.
.	16c#/	.	.	.	.
*	*Xped	*	*	*	*
8C#\J	16cc# 16e/	.	.	.	.
.	16c#/JJ)	.	.	.	.
!!LO:LB:g=original
=191	=191	=191	=191	=191	=191
*xywh-8:807,2896,3937,711	*xywh-8:807,2896,3937,711	*	*xywh-8:834,2602,3915,322	*	*
*	*ped	*	*	*	*
8GG#\L	(16cc#LL 16e/	.	2.eee\	.	.
.	16c#/	.	.	.	.
8C#\	16cc# 16e/	.	.	.	.
.	16c#/	.	.	.	.
8E\	16cc# 16e/	.	.	.	.
.	16c#/	.	.	.	.
8G#\	16cc# 16e/	.	.	.	.
.	16c#/	.	.	.	.
8E\	16cc# 16e/	.	.	.	.
.	16c#/	.	.	.	.
8C#\J	16cc# 16e/	.	.	.	.
.	16c#/JJ)	.	.	.	.
=192	=192	=192	=192	=192	=192
8GG#\L	(16cc#LL 16e/	<	2.ggg#\	.	<[
.	16c#/	.	.	.	.
8C#\	16cc# 16e/	.	.	.	.
.	16c#/	.	.	.	.
8E\	16cc# 16e/	.	.	.	.
.	16c#/	.	.	.	.
8G#\	16cc# 16e/	.	.	.	.
.	16c#/	.	.	.	.
8E\	16cc# 16e/	.	.	.	.
.	16c#/	.	.	.	.
*	*Xped	*	*	*	*
8C#\J	16cc# 16e/	[	.	.	.
.	16c#/JJ)	.	.	.	.
=193	=193	=193	=193	=193	=193
8GG#\L	(16b#XLL 16f#/	>	2gg#/	.	>
.	16B#X/	.	.	.	.
8D#X\	16b# 16f#/	.	.	.	.
.	16B#X/	.	.	.	.
8F#\	16b# 16f#/	.	.	.	.
.	16B#X/	.	.	.	.
8G#\	16b# 16f#/	.	.	.	.
.	16B#X/	.	.	.	.
8F#\	16b# 16f#/	.	8ddd#X\L	.	.
.	16B#X/	.	.	.	.
8D#\J	16b# 16f#/	.	8eee\J	.	]]
.	16B#X/JJ)	.	.	.	.
=194	=194	=194	=194	=194	=194
8C#\L	(16cc#LL 16e/	]	2ccc#\	.	.
.	16c#/	.	.	.	.
8E\	16cc# 16e/	.	.	.	.
.	16c#/	.	.	.	.
8G#\	16cc# 16e/	.	.	.	.
.	16c#/	.	.	.	.
8A\	16cc# 16e/	.	.	.	.
.	16c#/	.	.	.	.
8G#\	16cc# 16e/	.	4r	.	.
.	16c#/	.	.	.	.
8E\J	16cc# 16e/	.	.	.	.
.	16c#/JJ)	.	.	.	.
=195	=195	=195	=195	=195	=195
8C#\L	(16a#XLL 16gn/	<	4eee\	.	<
.	16e/	.	.	.	.
8E\	16a# 16g/	.	.	.	.
.	16e/	.	.	.	.
8Gn\	16a# 16g/	.	4eee\	.	.
.	16e/	.	.	.	.
8A#X\	16a# 16g/	.	.	.	.
.	16e/	.	.	.	.
8G\	16a# 16g/	.	4eee\	.	[[
.	16e/	.	.	.	.
8E\J	16a# 16g/	.	.	.	.
.	16e/JJ)	[[	.	.	.
=196	=196	=196	=196	=196	=196
8D\L	(16bLL 16g#X/	sf >	2.eee\	.	sf >
.	16e/	.	.	.	.
8E\	16b 16g#/	.	.	.	.
.	16e/	.	.	.	.
8G#X\	16b 16g#/	.	.	.	]
.	16e/	.	.	.	.
8B\	16b 16g#/	.	.	.	.
.	16e/	.	.	.	.
8G#\	16b 16g#/	.	.	.	.
.	16e/	.	.	.	.
8E\J	16b 16g#/	.	.	.	.
.	16e/JJ)	]]	.	.	.
!!LO:LB:g=original
=197	=197	=197	=197	=197	=197
*xywh-8:779,3907,3949,677	*xywh-8:779,3907,3949,677	*	*xywh-8:824,3608,3886,350	*	*
8C#\L	(16a#XLL 16gn/	<	(4eee\	.	<
.	16e/	.	.	.	.
8E\	16a# 16g/	.	.	.	.
.	16e/	.	.	.	.
8Gn\	16a# 16g/	.	4.fff#\	.	.
.	16e/	.	.	.	.
8A#X\	16a# 16g/	.	.	.	.
.	16e/	.	.	.	.
8G\	16a# 16g/	.	.	.	.
.	16e/	.	.	.	.
8E\J	16a# 16g/	.	8eee\)	.	[[
.	16e/JJ)	[[	.	.	.
=198	=198	=198	=198	=198	=198
8D\L	(16bLL 16g#X/	sf >	2.eee\	.	sf >
.	16e/	.	.	.	.
8E\	16b 16g#/	.	.	.	.
.	16e/	.	.	.	.
8G#X\	16b 16g#/	.	.	.	]
.	16e/	.	.	.	.
8B\	16b 16g#/	.	.	.	.
.	16e/	.	.	.	.
8G#\	16b 16g#/	.	.	.	.
.	16e/	.	.	.	.
8E\J	16b 16g#/	.	.	.	.
.	16e/JJ)	]]	.	.	.
=199	=199	=199	=199	=199	=199
8C#\L	(16a#XLL 16gn/	<	4eee\	.	.
.	16e/	.	.	.	.
8E\	16a# 16g/	.	.	.	.
.	16e/	.	.	.	.
8Gn\	16a# 16g/	.	4eee\	.	.
.	16e/	.	.	.	.
8A#X\	16a# 16g/	.	.	.	.
.	16e/	.	.	.	.
8G\	16a# 16g/	.	4eee\	.	.
.	16e/	.	.	.	.
8E\J	16a# 16g/	.	.	.	.
.	16e/JJ)	.	.	.	.
=200	=200	=200	=200	=200	=200
8Cn\L	(16a#XLL 16gn/	.	(4eeev\	.	.
.	16e/	.	.	.	.
8E\	16a# 16g/	.	.	.	.
.	16e/	.	.	.	.
.	.	.	8qqfff#/L	.	.
.	.	.	8qqeee/J	.	.
8Gn\	16a# 16g/	.	4ddd#X\)	.	.
.	16e/	.	.	.	.
8A#X\	16a# 16g/	.	.	.	.
.	16e/	.	.	.	.
8G\	16a# 16g/	.	(4eeeu\	.	<[
.	16e/	.	.	.	.
8E\J	16a# 16g/	.	.	.	.
.	16e/JJ)	[[	.	.	.
=201	=201	=201	=201	=201	=201
8BB\L	(16bLL 16g#X/	mf	2.ggg#\)	.	f
.	16e/	.	.	.	.
8E\	16b 16g#/	.	.	.	.
.	16e/	.	.	.	.
8G#X\	16b 16g#/	.	.	.	.
.	16e/	.	.	.	.
8B\	16b 16g#/	.	.	.	.
.	16e/	.	.	.	.
8G#\	16b 16g#/	.	.	.	.
.	16e/	.	.	.	.
8E\J	16b 16g#/	.	.	.	.
.	16e/JJ)	.	.	.	.
=202	=202	=202	=202	=202	=202
8BB\L	(16bLL 16a/	pp	(2ggg#\	.	p >
.	16d#X/	.	.	.	.
8F#\	16b 16a/	.	.	.	.
.	16d#/	.	.	.	.
8A\	16b 16a/	.	.	.	.
.	16d#/	.	.	.	.
8B\	16b 16a/	.	.	.	.
.	16d#/	.	.	.	.
8A\	16b 16a/	.	4fff#\)	.	]
.	16d#/	.	.	.	.
8F#\J	16b 16a/	.	.	.	.
.	16d#/JJ)	.	.	.	.
!!LO:LB:g=original
=203	=203	=203	=203	=203	=203
*xywh-8:773,4896,3983,830	*xywh-8:773,4896,3983,830	*	*xywh-8:847,4596,3864,344	*	*
8EE\L	(16bLL 16g#/	.	2.eee\	.	.
.	16e/	.	.	.	.
8E\	16b 16g#/	.	.	.	.
.	16e/	.	.	.	.
8G#\	16b 16g#/	.	.	.	.
.	16e/	.	.	.	.
8B\	16b 16g#/	.	.	.	.
.	16e/	.	.	.	.
8G#\	16b 16g#/	.	.	.	.
.	16e/	.	.	.	.
8E\J	16b 16g#/	.	.	.	.
.	16e/JJ)	.	.	.	.
=204	=204	=204	=204	=204	=204
8EL 8EE^\	(16cc#LL 16a#X/	.	4fff#\	.	.
.	16f#/	.	.	.	.
8F#\	16cc# 16a#/	.	.	.	.
.	16f#/	.	.	.	.
8A#X\	16cc# 16a#/	.	4fff#\	.	.
.	16f#/	.	.	.	.
8c#\	16cc# 16a#/	.	.	.	.
.	16f#/	.	.	.	.
8A#\	16cc# 16a#/	.	4fff#\	.	.
.	16f#/	.	.	.	.
8F#\J	16cc# 16a#/	.	.	.	.
.	16f#/JJ)	.	.	.	.
=205	=205	=205	=205	=205	=205
8EL 8EE^\	(16ddLL 16b/	.	4.fff#\	.	.
.	16f#/	.	.	.	.
8F#\	16dd 16b/	.	.	.	.
.	16f#/	.	.	.	.
8B\	16dd 16b/	.	.	.	.
.	16f#/	.	.	.	.
8d\	16dd 16b/	.	8gggn\	.	.
.	16f#/	.	.	.	.
8B\	16dd 16b/	.	4fff#\	.	.
.	16f#/	.	.	.	.
8F#\J	16dd 16b/	.	.	.	.
.	16f#/JJ)	.	.	.	.
=206	=206	=206	=206	=206	=206
8EL 8EE^\	(16cc#LL 16a#X/	<	4fff#\	.	.
.	16f#/	.	.	.	.
8F#\	16cc# 16a#/	.	.	.	.
.	16f#/	.	.	.	.
8A#X\	16cc# 16a#/	.	4fff#\	.	.
.	16f#/	.	.	.	.
8c#\	16cc# 16a#/	.	.	.	.
.	16f#/	.	.	.	.
8A#\	16cc# 16a#/	.	4fff#\	.	.
.	16f#/	.	.	.	.
8F#\J	16cc# 16a#/	.	.	.	.
.	16f#/JJ)	.	.	.	.
=207	=207	=207	=207	=207	=207
8DL 8DD^\	(16ddLL 16b/	.	4.fff#\	.	.
.	16f#/	.	.	.	.
8F#\	16dd 16b/	[	.	.	.
.	16f#/	.	.	.	.
8B\	16dd 16b/	.	.	.	.
.	16f#/	.	.	.	.
8d\	16dd 16b/	.	(8ggg#X'~v\L	.	<
.	16f#/	.	.	.	.
8B\	16dd 16b/	.	8aaa#X'~\	.	.
.	16f#/	.	.	.	.
8F#\J	16dd 16b/	.	8bbb'~\J	.	[[
.	16f#/JJ)	.	.	.	.
=208	=208	=208	=208	=208	=208
8DL 8DD^\	(16bLL 16g#/	<	4eee\)	.	.
.	16e/	.	.	.	.
8E\	16b 16g#/	.	.	.	.
.	16e/	.	.	.	.
8G#\	16b 16g#/	.	4eee\	.	.
.	16e/	.	.	.	.
8B\	16b 16g#/	.	.	.	.
.	16e/	.	.	.	.
8G#\	16b 16g#/	.	4eee\	.	.
.	16e/	.	.	.	.
8E\J	16b 16g#/	.	.	.	.
.	16e/JJ)	[[	.	.	.
!!LO:PB:g=original
=209	=209	=209	=209	=209	=209
*xywh-9:438,940,3900,763	*xywh-9:438,940,3900,763	*	*xywh-9:401,558,3988,438	*	*
8C#L 8CC#^\	(16cc#LL 16an/	.	4.eee\	.	.
.	16e/	.	.	.	.
8E\	16cc# 16a/	.	.	.	.
.	16e/	.	.	.	.
8An\	16cc# 16a/	.	.	.	.
.	16e/	.	.	.	.
8c#\	16cc# 16a/	.	(8fff#'v\L	.	<
.	16e/	.	.	.	.
8A\	16cc# 16a/	.	8ggg#'\	.	.
.	16e/	.	.	.	.
8E\J	16cc# 16a/	.	8aaa'\J	.	[[
.	16e/JJ)	.	.	.	.
=210	=210	=210	=210	=210	=210
8C#L 8CC#^\	(16aLL 16f#/	<	4ddd\)	.	<
.	16d/	.	.	.	.
8D\	16a 16f#/	.	.	.	.
.	16d/	.	.	.	.
8F#\	16a 16f#/	.	4ddd\	.	.
.	16d/	.	.	.	.
8A\	16a 16f#/	.	.	.	.
.	16d/	.	.	.	.
8F#\	16a 16f#/	.	4ddd\	.	.
.	16d/	.	.	.	.
8D\J	16a 16f#/	.	.	.	.
.	16d/JJ)	[[	.	.	[[
=211	=211	=211	=211	=211	=211
8BBL 8BBB^\	(16g#LL 16f#/	mf	4.ddd\	.	mf
.	16d/	.	.	.	.
8D\	16g# 16f#/	.	.	.	.
.	16d/	.	.	.	.
8F#\	16g# 16f#/	.	.	.	.
.	16d/	.	.	.	.
8G#\	16g# 16f#/	.	8ccc#\	.	.
.	16d/	.	.	.	.
8F#\	16g# 16f#/	.	4ddd\	.	.
.	16d/	.	.	.	.
8D\J	16g# 16f#/	.	.	.	.
.	16d/JJ)	.	.	.	.
=212	=212	=212	=212	=212	=212
8GG#L 8GGG#^\	(16g#LL 16f# 16d#X/	pp	(4ddd#X\	.	pp <
.	16B#X/	.	.	.	.
8BB#X\	16g# 16f# 16d#/	.	.	.	.
.	16B#/	.	.	.	.
8F#\	16g# 16f# 16d#/	.	4.ggg#^\	.	[ >
.	16B#/	.	.	.	.
8G#\	16g# 16f# 16d#/	.	.	.	.
.	16B#/	.	.	.	.
8F#\	16g# 16f# 16d#/	.	.	.	.
.	16B#/	.	.	.	.
8BB#\J	16g# 16f# 16d#/	.	8fff#\)	.	]
.	16B#/JJ)	.	.	.	.
=213	=213	=213	=213	=213	=213
8C#L 8CC#\	(16g#LL 16e#X/	.	[2eee#X\	.	.
.	16c#/	.	.	.	.
8E#X\	16g# 16e#/	.	.	.	.
.	16c#/	.	.	.	.
8G#\	16g# 16e#/	.	.	.	.
.	16c#/	.	.	.	.
8A#X\	16g# 16e#/	.	.	.	.
.	16c#/	.	.	.	.
8G#\	16g# 16e#/	.	4eee#'\]	.	.
.	16c#/	.	.	.	.
8E#\J	16g# 16e#/	.	.	.	.
.	16c#/JJ)	.	.	.	.
=214	=214	=214	=214	=214	=214
8C#\L	(16b#XLL 16g# 16f#/	.	(4.eee#X\	.	.
.	16B#X/	.	.	.	.
8F#\	16b# 16g# 16f#/	.	.	.	.
.	16B#/	.	.	.	.
8G#\	16b# 16g# 16f#/	.	.	.	.
.	16B#/	.	.	.	.
8A#X\	16b# 16g# 16f#/	.	8ddd#X'~\L	.	.
.	16B#/	.	.	.	.
8G#\	16b# 16g# 16f#/	.	8bb#X'~\	.	.
.	16B#/	.	.	.	.
8F#\J	16b# 16g# 16f#/	.	8gg#'~\J)	.	.
.	16B#/JJ)	.	.	.	.
!!LO:LB:g=original
=215	=215	=215	=215	=215	=215
*xywh-9:382,1930,3938,782	*xywh-9:382,1930,3938,782	*	*xywh-9:426,1654,3888,331	*	*
8C#\L	(16cc#LL 16g# 16e#X/	.	4.gg#/	.	.
.	16c#/	.	.	.	.
8E#X\	16cc# 16g# 16e#/	.	.	.	.
.	16c#/	.	.	.	.
8G#\	16cc# 16g# 16e#/	.	.	.	.
.	16c#/	.	.	.	.
8A#X\	16cc# 16g# 16e#/	.	(8aa#X'~\L	.	.
.	16c#/	.	.	.	.
8G#\	16cc# 16g# 16e#/	.	8bb#X'~\	.	.
.	16c#/	.	.	.	.
8E#\J	16cc# 16g# 16e#/	.	8ccc#'~\J)	.	.
.	16c#/JJ)	.	.	.	.
=216	=216	=216	=216	=216	=216
8C#\L	(16b#XLL 16g# 16f#/	.	4.eee#X\	.	.
.	16B#X/	.	.	.	.
8F#\	16b# 16g# 16f#/	.	.	.	.
.	16B#/	.	.	.	.
8G#\	16b# 16g# 16f#/	.	.	.	.
.	16B#/	.	.	.	.
8A#X\	16b# 16g# 16f#/	.	(8ddd#X'~\L	.	.
.	16B#/	.	.	.	.
8G#\	16b# 16g# 16f#/	.	8bb#X'~\	.	.
.	16B#/	.	.	.	.
8F#\J	16b# 16g# 16f#/	.	8gg#'~\J)	.	.
.	16B#/JJ)	.	.	.	.
=217	=217	=217	=217	=217	=217
8C#\L	(16cc#LL 16g# 16e#X/	.	2.ccc#\	.	<
.	16c#/	.	.	.	.
8E#X\	16cc# 16g# 16e#/	.	.	.	.
.	16c#/	.	.	.	.
8G#\	16cc# 16g# 16e#/	.	.	.	.
.	16c#/	.	.	.	.
8A#X\	16cc# 16g# 16e#/	.	.	.	.
.	16c#/	.	.	.	.
8G#\	16cc# 16g# 16e#/	.	.	.	.
.	16c#/	.	.	.	.
8E#\J	16cc# 16g# 16e#/	.	.	.	.
.	16c#/JJ)	.	.	.	.
=218	=218	=218	=218	=218	=218
!	!LO:TX:b:t=cres_cen_do.:problem=dynamics with extention lines	!LO:HP:t=cres_cen_do.	!	!	!
8C#\L	(16cc#LL 16g# 16e#X/	<	2.eee#X\	.	.
.	16c#/	.	.	.	.
8E#X\	16cc# 16g# 16e#/	.	.	.	.
.	16c#/	.	.	.	.
8G#\	16cc# 16g# 16e#/	.	.	.	.
.	16c#/	.	.	.	.
8A#X\	16cc# 16g# 16e#/	.	.	.	.
.	16c#/	.	.	.	.
8G#\	16cc# 16g# 16e#/	.	.	.	.
.	16c#/	.	.	.	.
8E#\J	16cc# 16g# 16e#/	.	.	.	.
.	16c#/JJ)	.	.	.	[[
=219	=219	=219	=219	=219	=219
8C#\L	(16cc#LL 16g# 16e#X/	.	2.ggg#\	.	f
.	16c#/	.	.	.	.
8E#X\	16cc# 16g# 16e#/	.	.	.	.
.	16c#/	.	.	.	.
8G#\	16cc# 16g# 16e#/	.	.	.	.
.	16c#/	.	.	.	.
8A#X\	16cc# 16g# 16e#/	.	.	.	.
.	16c#/	.	.	.	.
8G#\	16cc# 16g# 16e#/	.	.	.	.
.	16c#/	.	.	.	.
8E#\J	16cc# 16g# 16e#/	.	.	.	.
.	16c#/JJ)	[[	.	.	.
*	*	*	*X8va	*	*
=220	=220	=220	=220	=220	=220
!	!	!	!	!	!LO:DY:rj
8BBL 8BBB^\	(16ddLL 16b 16g#/	f	2.gg# 2.g#^<\	.	ff
.	16en/	.	.	.	.
8En\	16dd 16b 16g#/	.	.	.	.
.	16e/	.	.	.	.
8G#\	16dd 16b 16g#/	.	.	.	.
.	16e/	.	.	.	.
8An\	16dd 16b 16g#/	.	.	.	.
.	16e/	.	.	.	.
8G#\	16dd 16b 16g#/	.	.	.	.
.	16e/	.	.	.	.
8E\J	16dd 16b 16g#/	.	.	.	.
.	16e/JJ)	.	.	.	.
*	*Xtremolo	*	*	*	*
!!LO:LB:g=original
=221||	=221||	=221||	=221||	=221||	=221||
*xywh-9:370,2869,4088,857	*xywh-9:370,2869,4088,857	*xywh-9:370,2869,4088,857	*xywh-9:395,2619,3931,356	*	*
*	*	*^	*	*	*
!LO:TX:b:t=il Basso ben marcato.	!LO:TX:a:t=Maestoso.	!LO:DY:rj	!LO:DY:b=2:rj	!	!	!LO:DY:rj
8AAL 8AAA/	8cc#L 8a 8e^/	ff	sf	2.aa 2.a^\	.	ff
8C#^/	8cc# 8a 8e^/	.	.	.	.	.
8E^/	8cc# 8a 8e^/	.	.	.	.	.
8A^/	8cc# 8a 8e^/	.	.	.	.	.
8E^/	8cc# 8a 8e^/	.	.	.	.	.
8C#^/J	8cc#J 8a 8e^/	.	.	.	.	.
*	*	*v	*v	*	*	*
=222	=222	=222	=222	=222	=222
*	*	*	*8va	*	*
!	!	!LO:DY:b=2:rj	!	!	!
8AAL 8AAA/	8cc#L 8a 8e^/	sf	2.eee 2.ee^\	.	.
8C#^/	8cc# 8a 8e^/	.	.	.	.
8E^/	8cc# 8a 8e^/	.	.	.	.
8A^/	8cc# 8a 8e^/	.	.	.	.
8E^/	8cc# 8a 8e^/	.	.	.	.
8C#^/J	8cc#J 8a 8e^/	.	.	.	.
=223	=223	=223	=223	=223	=223
!	!	!LO:DY:b=2:rj	!	!	!
8AAL 8AAA/	8ddL 8a 8f#^/	sf	2aaa 2aa^\	.	.
8D^/	8dd 8a 8f#^/	.	.	.	.
8F#^/	8dd 8a 8f#^/	.	.	.	.
8A^/	8dd 8a 8f#^/	.	.	.	.
8F#^/	8dd 8a 8f#^/	.	8ggg#L 8gg#\	.	.
8D^/J	8ddJ 8a 8f#^/	.	8fff#J 8ff#\	.	.
=224	=224	=224	=224	=224	=224
!	!	!LO:DY:b=2:rj	!	!	!
8AAL 8AAA/	8cc#L 8a 8e^/	sf	2eee 2ee^\	.	.
8C#^/	8cc# 8a 8e^/	.	.	.	.
8E^/	8cc# 8a 8e^/	.	.	.	.
8A^/	8cc# 8a 8e^/	.	.	.	.
*	*	*	*X8va	*	*
8E^/	8cc# 8a 8e^/	.	4r	.	.
8C#^/J	8cc#J 8a 8e^/	.	.	.	.
=225	=225	=225	=225	=225	=225
!	!	!LO:DY:b=2:rj	!	!	!
8C#L 8CC#/	8eeL 8a 8e^>/	sf	2.aa 2.a^\	.	.
8E^/	8ee 8a 8e^>/	.	.	.	.
8A^/	8ee 8a 8e^>/	.	.	.	.
8c#^/	8ee 8a 8e^>/	.	.	.	.
8A^/	8ee 8a 8e^>/	.	.	.	.
8E^/J	8eeJ 8a 8e^>/	.	.	.	.
=226	=226	=226	=226	=226	=226
!	!	!LO:DY:b=2:rj	!	!	!
8AAL 8AAA/	8cc#L 8a 8e^>/	sf	2.eee 2.ee^<\	.	.
8C#^/	8cc# 8a 8e^>/	.	.	.	.
8E^/	8cc# 8a 8e^>/	.	.	.	.
8A^/	8cc# 8a 8e^>/	.	.	.	.
8E^/	8cc# 8a 8e^>/	.	.	.	.
8C#^/J	8cc#J 8a 8e^>/	.	.	.	.
!!LO:LB:g=original
=227	=227	=227	=227	=227	=227
*xywh-9:404,3910,3957,807	*xywh-9:404,3910,3957,807	*	*xywh-9:442,3672,3838,313	*	*
!	!	!LO:DY:b=2:rj	!	!	!
8EEL 8EEE/	8bL 8a 8d^>/	sf	2ddd 2dd^<\	.	.
8BB^/	8b 8a 8d^>/	.	.	.	.
8D^/	8b 8a 8d^>/	.	.	.	.
8A^/	8b 8a 8d^>/	.	.	.	.
8D^/	8b 8a 8d^>/	.	8ff#L 8f#^<\	.	.
8BB^/J	8bJ 8a 8d^>/	.	8bbJ 8b^<\	.	.
=228	=228	=228	=228	=228	=228
!	!	!LO:DY:b=2:rj	!	!	!
8EEL 8EEE/	8bL 8g# 8d^>/	sf	2ee 2e^\	.	.
8BB^/	8b 8g# 8d^>/	.	.	.	.
8D^/	8b 8g# 8d^>/	.	.	.	.
8G#^/	8b 8g# 8d^>/	.	.	.	.
8D^/	8b 8g# 8d^>/	.	4r	.	.
8BB^/J	8bJ 8g# 8d^>/	.	.	.	.
=229	=229	=229	=229	=229	=229
!	!	!LO:DY:b=2:rj	!	!	!
8FF#L 8FFF#/	8cc#L 8a 8e 8c#^>/	sf	2.aa 2.a^\	.	.
8C#^/	8cc# 8a 8e 8c#^>/	.	.	.	.
8E^/	8cc# 8a 8e 8c#^>/	.	.	.	.
8A^/	8cc# 8a 8e 8c#^>/	.	.	.	.
8E^/	8cc# 8a 8e 8c#^>/	.	.	.	.
8C#^/J	8cc#J 8a 8e 8c#^>/	.	.	.	.
=230	=230	=230	=230	=230	=230
*	*	*	*8va	*	*
!	!	!LO:DY:b=2:rj	!	!	!
8GnL 8GGn\	8eeL 8cc# 8a 8e^\	sf	2.eee 2.ee^\	.	.
8A^<\	8ee 8cc# 8a 8e^\	.	.	.	.
8c#^<\	8ee 8cc# 8a^\	.	.	.	.
8e^<\	8ee 8cc# 8a^\	.	.	.	.
8c#^<\	8ee 8cc# 8a^\	.	.	.	.
8A^<\J	8eeJ 8cc# 8a^\	.	.	.	.
=231	=231	=231	=231	=231	=231
!	!	!LO:DY:b=2:rj	!	!	!
8F#L 8FF#\	8aaL 8ff# 8dd 8a^\	sf	2aaa 2aa^<\	.	.
8A^<\	8aa 8ff# 8dd 8a^\	.	.	.	.
8d^<\	8aa 8ff# 8dd 8a^\	.	.	.	.
8f#^<\	8aa 8ff# 8dd 8a^\	.	.	.	.
8d^<\	8aa 8ff# 8dd 8a^\	.	8ggg#L 8gg#^<\	.	.
8A^<\J	8aaJ 8ff# 8dd 8a^\	.	8aaaJ 8aa^<\	.	.
=232	=232	=232	=232	=232	=232
!	!	!LO:DY:b=2:rj	!	!	!LO:DY:rj
8BBL 8BBB\	8aaL 8ff# 8dd#X 8a^\	sf	[2.bbb [>2.bb^<\	.	ff
8F#^<\	8aa 8ff# 8dd# 8a^\	.	.	.	.
8A^<\	8aa 8ff# 8dd# 8a^\	.	.	.	.
8d#X^<\	8aa 8ff# 8dd# 8a^\	.	.	.	.
8A^<\	8aa 8ff# 8dd# 8a^\	.	.	.	.
8F#^<\J	8aaJ 8ff# 8dd# 8a^\	.	.	.	.
=233	=233	=233	=233	=233	=233
!	!	!LO:DY:b=2:rj	!	!	!
8BBL 8BBB\	8aaL 8ff# 8dd#X 8a^\	sf	2bbb] 2bb\]	.	.
8F#^<\	8aa 8ff# 8dd# 8a^\	.	.	.	.
8A^<\	8aa 8ff# 8dd# 8a^\	.	.	.	.
8d#X^<\	8aa 8ff# 8dd# 8a^\	.	.	.	.
8A^<\	8aa 8ff# 8dd# 8a^\	.	4aaa 4aa^<\	.	.
8F#^<\J	8aaJ 8ff# 8dd# 8a^\	.	.	.	.
!!LO:LB:g=original
=234	=234	=234	=234	=234	=234
*xywh-9:355,4924,3944,932	*xywh-9:355,4924,3944,932	*	*xywh-9:392,4643,3888,438	*	*
!	!	!LO:DY:b=2:rj	!	!	!
8BB#XL 8BBB#X\	8aaL 8ff# 8dd#X 8a^\	sf	4aaa 4aa^<\	.	.
8F#^<\	8aa 8ff# 8dd# 8a^\	.	.	.	.
8A^<\	8aa 8ff# 8dd# 8a^\	.	4ggg# 4gg#^<\	.	.
8d#X^<\	8aa 8ff# 8dd# 8a^\	.	.	.	.
8A^<\	8aa 8ff# 8dd# 8a^\	.	4fff# 4ff#^<\	.	.
8F#^<\J	8aaJ 8ff# 8dd# 8a^\	.	.	.	.
=235	=235	=235	=235	=235	=235
!	!	!LO:DY:b=2:rj	!LO:S:s=2:note:problem=note-level slur	!	!
8C#L 8CC#\	8aaL 8ee 8a^\	sf	(2eee (>2ee^<\	.	.
8E^<\	8aa 8ee 8a^\	.	.	.	.
8A^<\	8aa 8ee 8a^\	.	.	.	.
8c#^<\	8aa 8ee 8a^\	.	.	.	.
8A^<\	8aa 8ee 8a^\	.	4cccc#) 4ccc#\)	.	.
8E^<\J	8aaJ 8ee 8a^\	.	.	.	.
=236	=236	=236	=236	=236	=236
!	!	!LO:DY:b=2	!	!	!
8DnL 8DDn\	8ff#L 8ddn 8b 8f#^\	sf	4bbb 4bb^<\	.	.
8F#^<\	8ff# 8dd 8b 8f#^\	.	.	.	.
8B^<\	8ff# 8dd 8b 8f#^\	.	4aaa 4aa^<\	.	.
8d^<\	8ff# 8dd 8b 8f#^\	.	.	.	.
8B^<\	8ff# 8dd 8b 8f#^\	.	4fff# 4ff#^<\	.	.
8F#^<\J	8ff#J 8dd 8b 8f#^\	.	.	.	.
=237	=237	=237	=237	=237	=237
*	*	*^	*	*	*
!LO:TX:t=P:problem=mixed beam	!	!	!LO:DY:b=2:rj	!	!	!
!LO:N:vis=2.	!	!	!	!	!	!
8EEL 8EEE/	8eeL 8cc# 8a 8e^\	sf	sf	2.eee 2.ee^u<\	.	.
8c# 8A 8E^<\	8ee 8cc# 8a 8e^\	.	.	.	.	.
8c# 8A 8E^<\	8ee 8cc# 8a 8e^\	.	.	.	.	.
8c# 8A 8E^<\	8ee 8cc# 8a 8e^\	.	.	.	.	.
8c# 8A 8E^<\	8ee 8cc# 8a 8e^\	.	.	.	.	.
8c#J 8A 8E^<\	8eeJ 8cc# 8a 8e^\	.	.	.	.	.
=238	=238	=238	=238	=238	=238	=238
!LO:TX:t=P:problem=mixed beam	!	!	!LO:DY:b=2:rj	!	!	!
!LO:N:vis=2.	!	!	!	!	!	!
8EEL 8EEE/	8ee#XL 8cc# 8a 8e#X^\	sf	sf	2.eee#X^ 2.ee#X^^<\	.	.
8c# 8A 8E#X^<\	8ee# 8cc# 8a 8e#^\	.	.	.	.	.
8c# 8A 8E#^<\	8ee# 8cc# 8a 8e#^\	.	.	.	.	.
8c# 8A 8E#^<\	8ee# 8cc# 8a 8e#^\	.	.	.	.	.
8c# 8A 8E#^<\	8ee# 8cc# 8a 8e#^\	.	.	.	.	.
8c#J 8A 8E#^<\	8ee#J 8cc# 8a 8e#^\	.	.	.	.	.
=239	=239	=239	=239	=239	=239	=239
!LO:TX:t=P:problem=mixed beam	!LO:TX:b:t=rit. e pesante.	!LO:DY:b=2	!LO:DY:a:rj	!LO:TX:b:t=ri_te_nu_to.:dur=5q:ext=ud:problem=text with extention lines	!	!LO:DY:rj
!LO:N:vis=2.	!	!	!	!	!	!
8EEnL 8EEEn/	8ff#L 8cc# 8a#X 8f#^\	sf	sf	4fff# 4ff#~\	.	f
8c# 8A#X 8F#^<\	8ff# 8cc# 8a# 8f#^\	.	.	.	.	.
!	!	!	!	!	!	!LO:DY:rj
8c# 8A# 8F#^<\	8ff# 8cc# 8a# 8f#^\	.	.	4fff# 4ff#~\	.	f
8c# 8A# 8F#^<\	8ff# 8cc# 8a# 8f#^\	.	.	.	.	.
!	!	!LO:DY:a:rj	!LO:DY:b=2	!	!	!LO:DY:rj
8c# 8A# 8F##X^<\	8ff#X 8cc# 8a# 8f##X^\	sf	sf	4fff# 4ff#~\	.	f
8c#J 8A# 8F##^<\	8ff#XJ 8cc# 8a# 8f##^\	.	.	.	.	.
=240	=240	=240	=240	=240	=240	=240
!LO:TX:t=P:problem=mixed beam	!	!LO:DY:a:rj	!LO:DY:b=2	!	!LO:DY:rj	!
!LO:N:vis=2.	!	!	!	!	!	!
8EEL 8EEE/	8ff#L 8dd 8b 8g#^\	sf	sf	2fff# 2ff#~\	.	f
8d 8B 8G#^<\	8ff# 8dd 8b 8g#^\	.	.	.	.	.
8d 8B 8G#^<\	8ff# 8dd 8b 8g#^\	.	.	.	.	.
8d 8B 8G#^<\	8ff# 8dd 8b 8g#^\	.	.	.	.	.
!	!	!LO:DY:a:rj	!LO:DY:b=2	!	!	!LO:DY:rj
8d 8B 8G#^<\	8een 8dd 8b 8g#^\	sf	sf	4eee 4ee~\	.	f
8dJ 8B 8G#^<\	8eeJ 8dd 8b 8g#^\	.	.	.	.	.
*	*	*	*	*X8va	*	*
*	*	*v	*v	*	*	*
!!LO:PB:g=original
=241	=241	=241	=241	=241	=241
*xywh-10:921,1029,3894,1000	*xywh-10:921,1029,3894,1000	*	*xywh-10:885,548,4013,593	*	*
!	!	!	!LO:TX:b:t=Piu mosso.	!	!
!LO:N:vis=2	!LO:TX:b:t=spirituoso.	!	!LO:TX:a:t=spirituoso.	!	!LO:DY:rj
8AAL 8AAA/	8eeL 8cc# 8a^\	sf	2.aa^ 2.a^^<\	.	ff
8c# 8A 8E^/	8ee 8cc# 8a^\	.	.	.	.
8c# 8A 8E^/	8aa 8ee 8cc# 8a^\	.	.	.	.
8c# 8A 8E^/	8aa 8ee 8cc# 8a^\	.	.	.	.
8c# 8A 8E^/	8ccc# 8aa 8ee 8cc#^\	.	.	.	.
8c#J 8A 8E^/	8ccc#J 8aa 8ee 8cc#^\	.	.	.	.
=242	=242	=242	=242	=242	=242
*	*	*^	*	*	*
!LO:N:vis=2.	!	!	!LO:DY:b=2:rj	!	!	!
8AAL 8AAA/	4fff# 4aa 4ff#^^\	ff	sf	(16ff#u\KL	1	<[
.	.	.	.	8.aaJ 8.a\)	.	sf
8d 8A 8F#^/	.	.	.	.	.	.
8d 8A 8F#^/	4eee 4aa 4ee^^\	.	.	(16eevo\KL	.	<[
.	.	.	.	8.aaJ 8.a\)	.	sf
8d 8A 8F#^/	.	.	.	.	.	.
8d 8A 8F#^/	4ddd 4aa 4dd^^\	.	.	(16ddu\KL	3	<[
.	.	.	.	8.aaJ 8.a\)	3	sf
8dJ 8A 8F#^/	.	.	.	.	.	.
*	*	*v	*v	*	*	*
=243	=243	=243	=243	=243	=243
!LO:N:vis=2	!	!LO:DY:b=2:rj	!	!	!
8AAL 8AAA/	4ccc# 4ee 4cc#^^\	sf	(16cc#v\KL	.	<[
.	.	.	8.eeJ 8.e\)	.	sf
8c# 8A 8E^/	.	.	.	.	.
8c# 8A 8E^/	4bb 4ee 4b^^\	.	(16bu\KL	.	<[
.	.	.	8.eeJ 8.e\)	.	sf
8c# 8A 8E^/	.	.	.	.	.
8c# 8A 8E^/	4aa 4ee 4a^^\	.	(16av\KL	.	<[
.	.	.	8.eeJ 8.e\)	.	sf
8c#J 8A 8E^/	.	.	.	.	.
=244	=244	=244	=244	=244	=244
*	*	*	*	*^	*
!LO:N:vis=2	!	!LO:DY:b=2	!	!	!	!
8AAL 8AAA/	4gg# 4b 4g#^^\	sf	(16g#v/KL	2	.	<[
.	.	.	8.bJ 8.B/)	.	.	sf
8d 8B 8G# 8E^/	.	.	.	.	.	.
8d 8B 8G# 8E^/	4ff# 4b 4f#^^\	.	(16f#v/KL	1	.	<[
.	.	.	8.bJ 8.B/)	.	.	sf
8d 8B 8G# 8E^/	.	.	.	.	.	.
8d 8B 8G# 8E^/	4ee 4b 4e^^\	.	(16eu/KL	1	.	<[
.	.	.	8.bJ 8.B/)	4	2	sf
8dJ 8B 8G# 8E^/	.	.	.	.	.	.
*	*clefF4	*	*	*	*	*
*	*	*	*	*v	*v	*
=245	=245	=245	=245	=245	=245
!	!	!	!	!	!LO:DY:rj
8AAL 8EE 8AAA/	4.E 4.C#^\	pp	(4.c#v/	.	p
8AA 8EE 8AAA/	.	.	.	.	.
8AA 8EE 8AAA/	.	.	.	.	.
*	*	*	*	*below	*
8AA 8EE 8AAA/	8FnL 8C#`\	.	8d/L	4	.
8AA 8EE 8AAA/	8F#X 8C#`\	.	8d#X/	4	.
8AAJ 8EE 8AAA/	8GnJ 8C#`\	.	8e/J)	.	.
=246	=246	=246	=246	=246	=246
8BBL 8EE 8AAA/	4.G#X 4.D^\	<	(4.fnu/	.	<
8BB 8EE 8AAA/	.	.	.	.	.
8BB 8EE 8AAA/	.	.	.	.	.
8BB 8EE 8AAA/	8AL 8D`\	.	8f#X/L	.	.
8BB 8EE 8AAA/	8A#X 8D`\	.	8gn/	.	.
8BBJ 8EE 8AAA/	8BJ 8D`\	.	8g#X/J)	.	.
!!LO:LB:g=original
=247	=247	=247	=247	=247	=247
*xywh-10:924,2336,3900,943	*xywh-10:924,2336,3900,943	*	*xywh-10:873,1991,3967,373	*	*
8AAL 8EE 8AAA/	8B#XL 8C#`\	.	(8av\L	.	.
8AA 8EE 8AAA/	8c# 8C#`\	.	8a#X\	.	.
8AA 8EE 8AAA/	8d 8D`\	.	8b\	.	.
8AA 8EE 8AAA/	8d#X 8D#X`\	.	8ccn\	.	.
8AA 8EE 8AAA/	8e 8E`\	.	8cc#X\	.	.
8AAJ 8EE 8AAA/	8fnJ 8Fn`\	[[	8dd\J)	.	[[
*	*clefG2	*	*	*	*
=248	=248	=248	=248	=248	=248
!	!	!	!	!	!LO:DY:rj
8BBL 8EE 8AAA/	8f#XL 8d 8F#X/	f	(8dd#Xu\L	.	f
8BB 8EE 8AAA/	8gn 8d 8Gn/	.	8ee\	.	.
8BB 8EE 8AAA/	8g#X 8d 8G#X/	.	8ffn\	.	.
8BB 8EE 8AAA/	8a 8d 8A/	.	8ff#X\	.	.
8BB 8EE 8AAA/	8a#X 8d 8A#X/	.	8ggn\	.	.
8BBJ 8EE 8AAA/	8bJ 8d 8B/	.	8gg#X\J)	.	.
=249	=249	=249	=249	=249	=249
!	!	!	!	!	!LO:DY:rj
8AAL 8EE 8AAA/	8cc#L 8e 8c#/	ff	2.aa 2.a^\	.	ff
8AA 8EE 8AAA/	8cc# 8e 8c#/	.	.	.	.
8AA 8EE 8AAA/	8ee 8cc# 8an 8e/	.	.	.	.
8AA 8EE 8AAA/	8ee 8cc# 8a 8e/	.	.	.	.
8AA 8EE 8AAA/	8aa 8ee 8cc# 8a/	.	.	.	.
8AAJ 8EE 8AAA/	8aaJ 8ee 8cc# 8a/	.	.	.	.
=250	=250	=250	=250	=250	=250
!LO:N:vis=2.	!	!LO:DY:b=2	!	!	!
8AAL 8AAA/	4fff# 4aa 4ff#^^\	sf	(16ff#u\KL	.	<[
.	.	.	8.aaJ 8.a\)	.	sf
8d 8A 8F#^/	.	.	.	.	.
8d 8A 8F#^/	4eee 4aa 4ee^^\	.	(16eev\KL	.	<[
.	.	.	8.aaJ 8.a\)	.	sf
8d 8A 8F#^/	.	.	.	.	.
8d 8A 8F#^/	4ddd 4aa 4dd^^\	.	(16ddu\KL	.	<[
.	.	.	8.aaJ 8.a\)	.	sf
8dJ 8A 8F#^/	.	.	.	.	.
=251	=251	=251	=251	=251	=251
!LO:N:vis=2.	!	!LO:DY:b=2	!	!	!
8AAL 8AAA/	4ccc# 4ee 4cc#^^\	sf	(16cc#v\KL	.	<[
.	.	.	8.eeJ 8.e\)	.	sf
8c# 8A 8E^/	.	.	.	.	.
8c# 8A 8E^/	4bb 4ee 4b^^\	.	(16bu\KL	.	<[
.	.	.	8.eeJ 8.e\)	.	sf
8c# 8A 8E^/	.	.	.	.	.
8c# 8A 8E^/	4aa 4ee 4a^^\	.	(16av\KL	.	<[
.	.	.	8.eeJ 8.e\)	.	sf
8c#J 8A 8E^/	.	.	.	.	.
=252	=252	=252	=252	=252	=252
!LO:N:vis=2.	!	!LO:DY:b=2	!	!	!
8AAL 8AAA/	4gg# 4b 4g#^^\	sf	(16g#u/KL	.	<[
.	.	.	8.bJ 8.B/)	.	sf
8d 8B 8G# 8E^/	.	.	.	.	.
8d 8B 8G# 8E^/	4ff# 4b 4f#^^\	.	(16f#v/KL	.	<[
.	.	.	8.bJ 8.B/)	.	sf
8d 8B 8G# 8E^/	.	.	.	.	.
8d 8B 8G# 8E^/	4ee 4b 4e^^\	.	(16eu/KL	.	<[
.	.	.	8.bJ 8.B/)	.	sf
8dJ 8B 8G# 8E^/	.	.	.	.	.
*	*clefF4	*	*	*	*
!!LO:LB:g=original
=253	=253	=253	=253	=253	=253
*xywh-10:845,3546,3967,977	*xywh-10:845,3546,3967,977	*	*xywh-10:924,3252,3883,378	*	*
!	!	!LO:DY:rj	!	!	!LO:DY:rj
8AAL 8EE 8AAA/	4.E 4.C#^\	p	(4.c#v/	.	p
8AA 8EE 8AAA/	.	.	.	.	.
8AA 8EE 8AAA/	.	.	.	.	.
8AA 8EE 8AAA/	8FnL 8C#`\	.	8d/L	.	.
8AA 8EE 8AAA/	8F#X 8C#`\	.	8d#X/	.	.
8AAJ 8EE 8AAA/	8GnJ 8C#`\	.	8e/J)	.	.
=254	=254	=254	=254	=254	=254
8BBL 8EE 8AAA/	4.A 4.D^\	<	(4.fnu/	.	<
8BB 8EE 8AAA/	.	.	.	.	.
8BB 8EE 8AAA/	.	.	.	.	.
8BB 8EE 8AAA/	8AL 8D`\	.	8f#X/L	.	.
8BB 8EE 8AAA/	8A#X 8D`\	.	8gn/	.	.
8BBJ 8EE 8AAA/	8BJ 8D`\	.	8g#X/J)	.	.
=255	=255	=255	=255	=255	=255
8AAL 8EE 8AAA/	8B#XL 8C#`\	.	(8av\L	.	.
8AA 8EE 8AAA/	8c# 8C#`\	.	8a#X\	.	.
8AA 8EE 8AAA/	8d 8D`\	.	8b\	.	.
8AA 8EE 8AAA/	8d#X 8D#X`\	.	8ccn\	.	.
8AA 8EE 8AAA/	8e 8E`\	.	8cc#X\	.	.
8AAJ 8EE 8AAA/	8fnJ 8Fn`\	[[	8dd\J)	.	[[
*	*clefG2	*	*	*	*
=256	=256	=256	=256	=256	=256
!	!	!	!	!	!LO:DY:rj
8BBL 8EE 8AAA/	8f#XL 8d 8F#X/	f	(8dd#Xu\L	.	f
8BB 8EE 8AAA/	8gn 8d 8Gn/	.	8ee\	.	.
8BB 8EE 8AAA/	8g#X 8d 8G#X/	.	8ffn\	.	.
8BB 8EE 8AAA/	8a 8d 8A/	.	8ff#X\	.	.
8BB 8EE 8AAA/	8a#X 8d 8A#X/	.	8ggn\	.	.
8BBJ 8EE 8AAA/	8bJ 8d 8B/	.	8gg#X\J)	.	.
=257	=257	=257	=257	=257	=257
!	!	!	!	!	!LO:DY:rj
8AAL 8EE 8AAA/	8cc#L 8e 8c#/	ff	2.aa^ 2.a^^<\	.	ff
8AA 8EE 8AAA/	8cc# 8e 8c#/	.	.	.	.
8AA 8EE 8AAA/	8ee 8cc# 8an 8e/	.	.	.	.
8AA 8EE 8AAA/	8ee 8cc# 8a 8e/	.	.	.	.
8AA 8EE 8AAA/	8aa 8ee 8cc# 8a/	.	.	.	.
8AAJ 8EE 8AAA/	8aaJ 8ee 8cc# 8a/	.	.	.	.
=258	=258	=258	=258	=258	=258
!LO:N:vis=2.	!	!LO:DY:b=2	!	!	!
8AAL 8AAA/	4fff# 4aa 4ff#^^\	sf	(16ff#u\KL	.	<[
.	.	.	8.aaJ 8.a\)	.	sf
8d 8A 8F#^/	.	.	.	.	.
8d 8A 8F#^/	4eee 4aa 4ee^^\	.	(16eev\KL	.	<[
.	.	.	8.aaJ 8.a\)	.	sf
8d 8A 8F#^/	.	.	.	.	.
8d 8A 8F#^/	4ddd 4ff# 4dd^^\	.	(16ddu\KL	.	<[
.	.	.	8.aaJ 8.a\)	.	sf
8dJ 8A 8F#^/	.	.	.	.	.
!!LO:LB:g=original
=259	=259	=259	=259	=259	=259
*xywh-10:895,4789,3984,1068	*xywh-10:895,4789,3984,1068	*	*xywh-10:952,4495,3854,418	*	*
!LO:N:vis=2.	!	!LO:DY:b=2	!	!	!
8AAL 8AAA/	4ccc# 4ee 4cc#^^\	sf	(16cc#v\KL	.	.
.	.	.	8.aaJ 8.a\)	.	.
8c# 8A 8E^/	.	.	.	.	.
!	!	!LO:DY:rj	!	!	!
8c# 8A 8E^/	2aa 2cc# 2a\	sf	2aa 2a^u<\	.	.
8c# 8A 8E^/	.	.	.	.	.
8c# 8A 8E^/	.	.	.	.	.
8c#J 8A 8E^/	.	.	.	.	.
=260	=260	=260	=260	=260	=260
!LO:N:vis=2.	!	!LO:DY:b=2	!	!	!
8AAL 8AAA/	4fffn 4aa 4ffn^^\	sf	(16ffnv\KL	.	.
.	.	.	8.aaJ 8.a\)	.	sf
8d 8A 8Fn^/	.	.	.	.	.
8d 8A 8F^/	4eee 4aa 4ee^^\	.	(16eeu\KL	.	.
.	.	.	8.aaJ 8.a\)	.	sf
8d 8A 8F^/	.	.	.	.	.
8d 8A 8F^/	4ddd 4aa 4dd^^\	.	(16ddv\KL	.	.
.	.	.	8.aaJ 8.a\)	.	sf
8dJ 8A 8F^/	.	.	.	.	.
=261	=261	=261	=261	=261	=261
!	!	!	!LO:TX:a:t=con fuoco.	!	!
8AAL 8AAA^^/	4ccc# 4ee 4cc#^^\	.	(16cc#u\KL	.	.
.	.	.	8.aaJ 8.a\)	.	sf
8AAJ 8AAA/	.	.	.	.	.
!	!	!LO:DY:rj	!	!	!
8DL 8DD^^/	4aa 4ff#X 4dd 4a\	f	(16ff#Xv\KL	.	.
.	.	.	8.aaJ 8.a\)	.	.
8DJ 8DD/	.	.	.	.	.
!	!	!LO:DY:rj	!	!	!
8AAL 8AAA^^/	4aa 4ee 4cc# 4a\	f	(16eeu\KL	.	.
.	.	.	8.aaJ 8.a\)	.	sf
8AAJ 8AAA/	.	.	.	.	.
=262	=262	=262	=262	=262	=262
8DL 8DD^^/	4aa 4ffn 4dd 4a\	f	(16ffnv\KL	.	.
.	.	.	8.aaJ 8.a\)	.	sf
8DJ 8DD/	.	.	.	.	.
8AAL 8AAA^^/	4aa 4ee 4cc# 4a\	f	(16eeu\KL	.	.
.	.	.	8.aaJ 8.a\)	.	sf
8AAJ 8AAA/	.	.	.	.	.
8DL 8DD^^/	4aa 4ff#X 4dd 4a\	f	(16ff#Xv\KL	.	.
.	.	.	8.aaJ 8.a\)	.	sf
8DJ 8DD/	.	.	.	.	.
=263	=263	=263	=263	=263	=263
*	*tremolo	*	*	*	*
.	.	.	(8qee/	.	.
4AA 4AAA/	(32aaLLL 32ee 32cc#\	fff	[2.aa [>2.au\)	.	.
.	32a\	.	.	.	.
.	32aa 32ee 32cc#\	.	.	.	.
.	32a\	.	.	.	.
.	32aa 32ee 32cc#\	.	.	.	.
.	32a\	.	.	.	.
.	32aa 32ee 32cc#\	.	.	.	.
.	32a\	.	.	.	.
2A 2AA^^\	32aa 32ee 32cc#\	.	.	.	.
.	32a\	.	.	.	.
.	32aa 32ee 32cc#\	.	.	.	.
.	32a\	.	.	.	.
.	32aa 32ee 32cc#\	.	.	.	.
.	32a\	.	.	.	.
.	32aa 32ee 32cc#\	.	.	.	.
.	32a\	.	.	.	.
.	32aa 32ee 32cc#\	.	.	.	.
.	32a\	.	.	.	.
.	32aa 32ee 32cc#\	.	.	.	.
.	32a\	.	.	.	.
.	32aa 32ee 32cc#\	.	.	.	.
.	32a\	.	.	.	.
.	32aa 32ee 32cc#\	.	.	.	.
.	32a\JJJ)	.	.	.	.
=264	=264	=264	=264	=264	=264
4FF# 4FFF#/	(32aaLLL 32ee 32cc#\	.	2.aa] 2.a\]	.	.
.	32a\	.	.	.	.
.	32aa 32ee 32cc#\	.	.	.	.
.	32a\	.	.	.	.
.	32aa 32ee 32cc#\	.	.	.	.
.	32a\	.	.	.	.
.	32aa 32ee 32cc#\	.	.	.	.
.	32a\	.	.	.	.
2F# 2FF#^^</	32aa 32ee 32cc#\	.	.	.	.
.	32a\	.	.	.	.
.	32aa 32ee 32cc#\	.	.	.	.
.	32a\	.	.	.	.
.	32aa 32ee 32cc#\	.	.	.	.
.	32a\	.	.	.	.
.	32aa 32ee 32cc#\	.	.	.	.
.	32a\	.	.	.	.
.	32aa 32ee 32cc#\	.	.	.	.
.	32a\	.	.	.	.
.	32aa 32ee 32cc#\	.	.	.	.
.	32a\	.	.	.	.
.	32aa 32ee 32cc#\	.	.	.	.
.	32a\	.	.	.	.
.	32aa 32ee 32cc#\	.	.	.	.
.	32a\JJJ)	.	.	.	.
!!LO:PB:g=original
=265	=265	=265	=265	=265	=265
*xywh-11:286,975,4058,969	*xywh-11:286,975,4058,969	*	*xywh-11:375,474,3979,608	*	*
4EE 4EEE/	(32aaLLL 32ee 32cc#\	.	8aaL^ 8a^^<\	.	.
.	32a\	.	.	.	.
.	32aa 32ee 32cc#\	.	.	.	.
.	32a\	.	.	.	.
.	32aa 32ee 32cc#\	.	8aa#X 8a#X^\	.	.
.	32a\	.	.	.	.
.	32aa 32ee 32cc#\	.	.	.	.
.	32a\	.	.	.	.
2E 2EE^^</	32aa 32ee 32cc#\	.	8bb 8b^\	.	.
.	32a\	.	.	.	.
.	32aa 32ee 32cc#\	.	.	.	.
.	32a\	.	.	.	.
.	32aa 32ee 32cc#\	.	8cccn 8ccn^\	.	.
.	32a\	.	.	.	.
.	32aa 32ee 32cc#\	.	.	.	.
.	32a\	.	.	.	.
.	32aa 32ee 32cc#\	.	8ccc#X 8cc#X^\	.	.
.	32a\	.	.	.	.
.	32aa 32ee 32cc#\	.	.	.	.
.	32a\	.	.	.	.
.	32aa 32ee 32cc#\	.	8dddJ 8dd^\	.	.
.	32a\	.	.	.	.
.	32aa 32ee 32cc#\	.	.	.	.
.	32a\JJJ)	.	.	.	.
=266	=266	=266	=266	=266	=266
*	*	*	*8va	*	*
4CC# 4CCC#/	(32aaLLL 32ee 32cc#\	.	8ddd#XL 8dd#X^\	.	.
.	32a\	.	.	.	.
.	32aa 32ee 32cc#\	.	.	.	.
.	32a\	.	.	.	.
.	32aa 32ee 32cc#\	.	8eee 8ee^\	.	.
.	32a\	.	.	.	.
.	32aa 32ee 32cc#\	.	.	.	.
.	32a\	.	.	.	.
2C# 2CC#^^</	32aa 32ee 32cc#\	.	8fffn 8ffn^\	.	.
.	32a\	.	.	.	.
.	32aa 32ee 32cc#\	.	.	.	.
.	32a\	.	.	.	.
.	32aa 32ee 32cc#\	.	8fff#X 8ff#X^\	.	.
.	32a\	.	.	.	.
.	32aa 32ee 32cc#\	.	.	.	.
.	32a\	.	.	.	.
.	32aa 32ee 32cc#\	.	8gggn 8ggn^\	.	.
.	32a\	.	.	.	.
.	32aa 32ee 32cc#\	.	.	.	.
.	32a\	.	.	.	.
.	32aa 32ee 32cc#\	.	8ggg#XJ 8gg#X^\	.	.
.	32a\	.	.	.	.
.	32aa 32ee 32cc#\	.	.	.	.
.	32a\JJJ)	.	.	.	.
=267	=267	=267	=267	=267	=267
*tremolo	*	*	*	*	*
!	!	!	!	!	!LO:DY:rj
(32EELLL 32CC# 32AAA/	(32aaLLL 32ee 32cc#\	fff	[2.aaa [>2.aa\	.	fff
32AA/	32a\	.	.	.	.
32EE 32CC# 32AAA/	32aa 32ee 32cc#\	.	.	.	.
32AA/	32a\	.	.	.	.
32EE 32CC# 32AAA/	32aa 32ee 32cc#\	.	.	.	.
32AA/	32a\	.	.	.	.
32EE 32CC# 32AAA/	32aa 32ee 32cc#\	.	.	.	.
32AA/	32a\	.	.	.	.
32EE 32CC# 32AAA/	32aa 32ee 32cc#\	.	.	.	.
32AA/	32a\	.	.	.	.
32EE 32CC# 32AAA/	32aa 32ee 32cc#\	.	.	.	.
32AA/	32a\	.	.	.	.
32EE 32CC# 32AAA/	32aa 32ee 32cc#\	.	.	.	.
32AA/	32a\	.	.	.	.
32EE 32CC# 32AAA/	32aa 32ee 32cc#\	.	.	.	.
32AA/	32a\	.	.	.	.
32EE 32CC# 32AAA/	32aa 32ee 32cc#\	.	.	.	.
32AA/	32a\	.	.	.	.
32EE 32CC# 32AAA/	32aa 32ee 32cc#\	.	.	.	.
32AA/	32a\	.	.	.	.
32EE 32CC# 32AAA/	32aa 32ee 32cc#\	.	.	.	.
32AA/	32a\	.	.	.	.
32EE 32CC# 32AAA/	32aa 32ee 32cc#\	.	.	.	.
32AA/JJJ)	32a\JJJ)	.	.	.	.
=268	=268	=268	=268	=268	=268
(32EELLL 32CC# 32AAA/	(32aaLLL 32ee 32cc#\	.	2.aaa_ 2.aa\_>	.	.
32AA/	32a\	.	.	.	.
32EE 32CC# 32AAA/	32aa 32ee 32cc#\	.	.	.	.
32AA/	32a\	.	.	.	.
32EE 32CC# 32AAA/	32aa 32ee 32cc#\	.	.	.	.
32AA/	32a\	.	.	.	.
32EE 32CC# 32AAA/	32aa 32ee 32cc#\	.	.	.	.
32AA/	32a\	.	.	.	.
32EE 32CC# 32AAA/	32aa 32ee 32cc#\	.	.	.	.
32AA/	32a\	.	.	.	.
32EE 32CC# 32AAA/	32aa 32ee 32cc#\	.	.	.	.
32AA/	32a\	.	.	.	.
32EE 32CC# 32AAA/	32aa 32ee 32cc#\	.	.	.	.
32AA/	32a\	.	.	.	.
32EE 32CC# 32AAA/	32aa 32ee 32cc#\	.	.	.	.
32AA/	32a\	.	.	.	.
32EE 32CC# 32AAA/	32aa 32ee 32cc#\	.	.	.	.
32AA/	32a\	.	.	.	.
32EE 32CC# 32AAA/	32aa 32ee 32cc#\	.	.	.	.
32AA/	32a\	.	.	.	.
32EE 32CC# 32AAA/	32aa 32ee 32cc#\	.	.	.	.
32AA/	32a\	.	.	.	.
32EE 32CC# 32AAA/	32aa 32ee 32cc#\	.	.	.	.
32AA/JJJ)	32a\JJJ)	.	.	.	.
*	*Xtremolo	*	*	*	*
=269	=269	=269	=269	=269	=269
!	!	!	!	!	!LO:DY:rj
(32AAA/LLL	8aa 8ee 8cc# 8a`\	sf	4aaa] 4aa\]	.	ff
32AA/	.	.	.	.	.
32AAA/	.	.	.	.	.
32AA/	.	.	.	.	.
32AAA/	8r	.	.	.	.
32AA/	.	.	.	.	.
32AAA/	.	.	.	.	.
32AA/	.	.	.	.	.
*	*	*	*X8va	*	*
32AAA/	4r	.	4r	.	.
32AA/	.	.	.	.	.
32AAA/	.	.	.	.	.
32AA/	.	.	.	.	.
32AAA/	.	.	.	.	.
32AA/	.	.	.	.	.
32AAA/	.	.	.	.	.
32AA/	.	.	.	.	.
32AAA/	4r	.	4r	.	.
32AA/	.	.	.	.	.
32AAA/	.	.	.	.	.
32AA/	.	.	.	.	.
32AAA/	.	.	.	.	.
32AA/	.	.	.	.	.
32AAA/	.	.	.	.	.
32AA/JJJ)	.	.	.	.	.
=270	=270	=270	=270	=270	=270
(32AAA/LLL	2.r	.	2.r	.	.
32AA/	.	.	.	.	.
32AAA/	.	.	.	.	.
32AA/	.	.	.	.	.
32AAA/	.	.	.	.	.
32AA/	.	.	.	.	.
32AAA/	.	.	.	.	.
32AA/	.	.	.	.	.
32AAA/	.	.	.	.	.
32AA/	.	.	.	.	.
32AAA/	.	.	.	.	.
32AA/	.	.	.	.	.
32AAA/	.	.	.	.	.
32AA/	.	.	.	.	.
32AAA/	.	.	.	.	.
32AA/	.	.	.	.	.
32AAA/	.	.	.	.	.
32AA/	.	.	.	.	.
32AAA/	.	.	.	.	.
32AA/	.	.	.	.	.
32AAA/	.	.	.	.	.
32AA/	.	.	.	.	.
32AAA/	.	.	.	.	.
32AA/JJJ)	.	.	.	.	.
=271	=271	=271	=271	=271	=271
(32AAA/LLL	2.r	>	2.r	.	.
32AA/	.	.	.	.	.
32AAA/	.	.	.	.	.
32AA/	.	.	.	.	.
32AAA/	.	.	.	.	.
32AA/	.	.	.	.	.
32AAA/	.	.	.	.	.
32AA/	.	.	.	.	.
32AAA/	.	.	.	.	.
32AA/	.	.	.	.	.
32AAA/	.	.	.	.	.
32AA/	.	.	.	.	.
32AAA/	.	.	.	.	.
32AA/	.	.	.	.	.
32AAA/	.	.	.	.	.
32AA/	.	.	.	.	.
32AAA/	.	.	.	.	.
32AA/	.	.	.	.	.
32AAA/	.	.	.	.	.
32AA/	.	.	.	.	.
32AAA/	.	.	.	.	.
32AA/	.	.	.	.	.
32AAA/	.	.	.	.	.
32AA/JJJ)	.	.	.	.	.
=272	=272	=272	=272	=272	=272
(32AAA/LLL	2.r	.	2.r	.	.
32AA/	.	.	.	.	.
32AAA/	.	.	.	.	.
32AA/	.	.	.	.	.
32AAA/	.	.	.	.	.
32AA/	.	.	.	.	.
32AAA/	.	.	.	.	.
32AA/	.	.	.	.	.
32AAA/	.	.	.	.	.
32AA/	.	.	.	.	.
32AAA/	.	.	.	.	.
32AA/	.	.	.	.	.
32AAA/	.	.	.	.	.
32AA/	.	.	.	.	.
32AAA/	.	.	.	.	.
32AA/	.	.	.	.	.
32AAA/	.	.	.	.	.
32AA/	.	.	.	.	.
32AAA/	.	.	.	.	.
32AA/	.	.	.	.	.
32AAA/	.	.	.	.	.
32AA/	.	.	.	.	.
32AAA/	.	.	.	.	.
32AA/JJJ)	.	]	.	.	.
!!LO:LB:g=original
=273	=273	=273	=273	=273	=273
*xywh-11:388,2209,3945,992	*xywh-11:388,2209,3945,992	*xywh-11:388,2209,3945,992	*xywh-11:337,1859,4069,524	*	*
*	*	*^	*	*	*
!	!LO:TX:a:t=Piu lento.	!LO:DY:rj	!LO:DY:b=2:rj	!LO:TX:b:t=sul D:dur=7q:ext=ud:problem=text with extention lines	!	!LO:DY:rj
(32AAA\LLL	(>2.cn 2.F#< 2.D#X<^>/	p	pp	(2.au\	.	p
32AA\	.	.	.	.	.	.
32AAA\	.	.	.	.	.	.
32AA\	.	.	.	.	.	.
32AAA\	.	.	.	.	.	.
32AA\	.	.	.	.	.	.
32AAA\	.	.	.	.	.	.
32AA\	.	.	.	.	.	.
32AAA\	.	.	.	.	.	.
32AA\	.	.	.	.	.	.
32AAA\	.	.	.	.	.	.
32AA\	.	.	.	.	.	.
32AAA\	.	.	.	.	.	.
32AA\	.	.	.	.	.	.
32AAA\	.	.	.	.	.	.
32AA\	.	.	.	.	.	.
32AAA\	.	.	.	.	.	.
32AA\	.	.	.	.	.	.
32AAA\	.	.	.	.	.	.
32AA\	.	.	.	.	.	.
32AAA\	.	.	.	.	.	.
32AA\	.	.	.	.	.	.
32AAA\	.	.	.	.	.	.
32AA\JJJ)	.	.	.	.	.	.
*	*	*v	*v	*	*	*
=274	=274	=274	=274	=274	=274
(32AAA\LLL	2.c#X 2.Gn< 2.E<^>/	.	(2.ee\)	.	.
32AA\	.	.	.	.	.
32AAA\	.	.	.	.	.
32AA\	.	.	.	.	.
32AAA\	.	.	.	.	.
32AA\	.	.	.	.	.
32AAA\	.	.	.	.	.
32AA\	.	.	.	.	.
32AAA\	.	.	.	.	.
32AA\	.	.	.	.	.
32AAA\	.	.	.	.	.
32AA\	.	.	.	.	.
32AAA\	.	.	.	.	.
32AA\	.	.	.	.	.
32AAA\	.	.	.	.	.
32AA\	.	.	.	.	.
32AAA\	.	.	.	.	.
32AA\	.	.	.	.	.
32AAA\	.	.	.	.	.
32AA\	.	.	.	.	.
32AAA\	.	.	.	.	.
32AA\	.	.	.	.	.
32AAA\	.	.	.	.	.
32AA\JJJ)	.	.	.	.	.
=275	=275	=275	=275	=275	=275
(32AAA\LLL	2.d#X 2.cn 2.F#<^>/	.	2aa\o)	.	.
32AA\	.	.	.	.	.
32AAA\	.	.	.	.	.
32AA\	.	.	.	.	.
32AAA\	.	.	.	.	.
32AA\	.	.	.	.	.
32AAA\	.	.	.	.	.
32AA\	.	.	.	.	.
32AAA\	.	.	.	.	.
32AA\	.	.	.	.	.
32AAA\	.	.	.	.	.
32AA\	.	.	.	.	.
32AAA\	.	.	.	.	.
32AA\	.	.	.	.	.
32AAA\	.	.	.	.	.
32AA\	.	.	.	.	.
32AAA\	.	.	8gg#\L	.	.
32AA\	.	.	.	.	.
32AAA\	.	.	.	.	.
32AA\	.	.	.	.	.
32AAA\	.	.	8ff#\J	.	.
32AA\	.	.	.	.	.
32AAA\	.	.	.	.	.
32AA\JJJ)	.	.	.	.	.
=276	=276	=276	=276	=276	=276
(32AAA\LLL	2.e 2.dn 2.B 2.G#X<^>/	.	2ee\	.	.
32AA\	.	.	.	.	.
32AAA\	.	.	.	.	.
32AA\	.	.	.	.	.
32AAA\	.	.	.	.	.
32AA\	.	.	.	.	.
32AAA\	.	.	.	.	.
32AA\	.	.	.	.	.
32AAA\	.	.	.	.	.
32AA\	.	.	.	.	.
32AAA\	.	.	.	.	.
32AA\	.	.	.	.	.
32AAA\	.	.	.	.	.
32AA\	.	.	.	.	.
32AAA\	.	.	.	.	.
32AA\	.	.	.	.	.
32AAA\	.	.	4r	.	.
32AA\	.	.	.	.	.
32AAA\	.	.	.	.	.
32AA\	.	.	.	.	.
32AAA\	.	.	.	.	.
32AA\	.	.	.	.	.
32AAA\	.	.	.	.	.
32AA\JJJ)	.	.	.	.	.
=277	=277	=277	=277	=277	=277
*	*	*	*	*above	*
!	!	!	!LO:TX:b:t=sul D:dur=10q:ext=ud:problem=text with extention lines	!	!
(32AAA/LLL	2.e 2.c#X 2.A^>/	.	(2.a\	4	<
32AA/	.	.	.	.	.
32AAA/	.	.	.	.	.
32AA/	.	.	.	.	.
32AAA/	.	.	.	.	.
32AA/	.	.	.	.	.
32AAA/	.	.	.	.	.
32AA/	.	.	.	.	.
32AAA/	.	.	.	.	.
32AA/	.	.	.	.	.
32AAA/	.	.	.	.	.
32AA/	.	.	.	.	.
32AAA/	.	.	.	.	.
32AA/	.	.	.	.	.
32AAA/	.	.	.	.	.
32AA/	.	.	.	.	.
32AAA/	.	.	.	.	.
32AA/	.	.	.	.	.
32AAA/	.	.	.	.	.
32AA/	.	.	.	.	.
32AAA/	.	.	.	.	.
32AA/	.	.	.	.	.
32AAA/	.	.	.	.	.
32AA/JJJ)	.	.	.	.	.
=278	=278	=278	=278	=278	=278
(32AAA/LLL	2.gn 2.c# 2.A#X/)	.	(2.ee\)	4	.
32AA/	.	.	.	.	.
32AAA/	.	.	.	.	.
32AA/	.	.	.	.	.
32AAA/	.	.	.	.	.
32AA/	.	.	.	.	.
32AAA/	.	.	.	.	.
32AA/	.	.	.	.	.
32AAA/	.	.	.	.	.
32AA/	.	.	.	.	.
32AAA/	.	.	.	.	.
32AA/	.	.	.	.	.
32AAA/	.	.	.	.	.
32AA/	.	.	.	.	.
32AAA/	.	.	.	.	.
32AA/	.	.	.	.	.
32AAA/	.	.	.	.	.
32AA/	.	.	.	.	.
32AAA/	.	.	.	.	.
32AA/	.	.	.	.	.
32AAA/	.	.	.	.	.
32AA/	.	.	.	.	.
32AAA/	.	.	.	.	.
32AA/JJJ)	.	.	.	.	[[
=279	=279	=279	=279	=279	=279
(32AAA/LLL	[2.g#X [2.e [2.d [2.B^>/	.	2dd\o)	3	>
32AA/	.	.	.	.	.
32AAA/	.	.	.	.	.
32AA/	.	.	.	.	.
32AAA/	.	.	.	.	.
32AA/	.	.	.	.	.
32AAA/	.	.	.	.	.
32AA/	.	.	.	.	.
32AAA/	.	.	.	.	.
32AA/	.	.	.	.	.
32AAA/	.	.	.	.	.
32AA/	.	.	.	.	.
32AAA/	.	.	.	.	.
32AA/	.	.	.	.	.
32AAA/	.	.	.	.	.
32AA/	.	.	.	.	.
*	*	*	*	*below	*
32AAA/	.	.	8f#/L	2	.
32AA/	.	.	.	.	.
32AAA/	.	.	.	.	.
32AA/	.	.	.	.	.
32AAA/	.	.	8b/J	4	]
32AA/	.	.	.	.	.
32AAA/	.	.	.	.	.
32AA/JJJ)	.	.	.	.	.
=280	=280	=280	=280	=280	=280
(32AAA/LLL	4g#] 4e] 4d] 4B/]	.	2e/	.	.
32AA/	.	.	.	.	.
32AAA/	.	.	.	.	.
32AA/	.	.	.	.	.
32AAA/	.	.	.	.	.
32AA/	.	.	.	.	.
32AAA/	.	.	.	.	.
32AA/	.	.	.	.	.
32AAA/	4g# 4e 4d 4B/	.	.	.	.
32AA/	.	.	.	.	.
32AAA/	.	.	.	.	.
32AA/	.	.	.	.	.
32AAA/	.	.	.	.	.
32AA/	.	.	.	.	.
32AAA/	.	.	.	.	.
32AA/	.	.	.	.	.
32AAA/	[4g# [4e [4d [4B^>/	.	4r	.	.
32AA/	.	.	.	.	.
32AAA/	.	.	.	.	.
32AA/	.	.	.	.	.
32AAA/	.	.	.	.	.
32AA/	.	.	.	.	.
32AAA/	.	.	.	.	.
32AA/JJJ)	.	.	.	.	.
=281	=281	=281	=281	=281	=281
*	*	*	*	*above	*
(32AAA/LLL	4g#] 4e] 4d] 4B/]	.	(4ddo\	3	>
32AA/	.	.	.	.	.
32AAA/	.	.	.	.	.
32AA/	.	.	.	.	.
32AAA/	.	.	.	.	.
32AA/	.	.	.	.	.
32AAA/	.	.	.	.	.
32AA/	.	.	.	.	.
32AAA/	4g# 4e 4d 4B/	.	8f#/L	.	.
32AA/	.	.	.	.	.
32AAA/	.	.	.	.	.
32AA/	.	.	.	.	.
*	*	*	*	*below	*
32AAA/	.	.	8b/J	4	.
32AA/	.	.	.	.	.
32AAA/	.	.	.	.	.
32AA/	.	.	.	.	.
32AAA/	[4g# [4e [4d [4B^>/	.	4e/)	.	.
32AA/	.	.	.	.	.
32AAA/	.	.	.	.	.
32AA/	.	.	.	.	.
32AAA/	.	.	.	.	.
32AA/	.	.	.	.	.
32AAA/	.	.	.	.	.
32AA/JJJ)	.	.	.	.	]
!!LO:LB:g=original
=282	=282	=282	=282	=282	=282
*xywh-11:342,3517,3979,901	*xywh-11:342,3517,3979,901	*	*xywh-11:444,3168,3861,411	*	*
*	*	*	*	*above	*
(32AAA/LLL	4g#] 4e] 4d] 4B/]	.	(<4ddo\	3	>
32AA/	.	.	.	.	.
32AAA/	.	.	.	.	.
32AA/	.	.	.	.	.
32AAA/	.	.	.	.	.
32AA/	.	.	.	.	.
32AAA/	.	.	.	.	.
32AA/	.	.	.	.	.
32AAA/	4g# 4e 4d 4B/	.	8f#/L	.	.
32AA/	.	.	.	.	.
32AAA/	.	.	.	.	.
32AA/	.	.	.	.	.
32AAA/	.	.	8b/J	.	.
32AA/	.	.	.	.	.
32AAA/	.	.	.	.	.
32AA/	.	.	.	.	.
32AAA/	4g# 4e 4d 4B^>/	.	4e/)	.	]]
32AA/	.	.	.	.	.
32AAA/	.	.	.	.	.
32AA/	.	.	.	.	.
32AAA/	.	.	.	.	.
32AA/	.	.	.	.	.
32AAA/	.	.	.	.	.
32AA/JJJ)	.	.	.	.	.
=283	=283	=283	=283	=283	=283
*	*^	*	*	*	*
!	!LO:TX:b:t=rallen.:dur=9q:ext=ud:problem=text with extention lines	!	!LO:HP:a	!LO:TX:b:t=rall.:dur=6q:ext=ud:problem=text with extention lines	!	!
(32AAA/LLL	(4f#/	2e 2d 2B\	<	(8ddo/L	3	.
32AA/	.	.	.	.	.	.
32AAA/	.	.	.	.	.	.
32AA/	.	.	.	.	.	.
32AAA/	.	.	.	8f#/J	.	.
32AA/	.	.	.	.	.	.
32AAA/	.	.	.	.	.	.
32AA/	.	.	.	.	.	.
*	*	*	*	*	*below	*
32AAA/	4g#/)	.	[	8b/L	4	.
32AA/	.	.	.	.	.	.
32AAA/	.	.	.	.	.	.
32AA/	.	.	.	.	.	.
32AAA/	.	.	.	8e/J	.	.
32AA/	.	.	.	.	.	.
32AAA/	.	.	.	.	.	.
32AA/	.	.	.	.	.	.
*	*	*	*	*	*above	*
!	!	!	!LO:HP:a	!	!	!
32AAA/	(4f#/	[>4e [4d [4B\	<	8ddo/L	3	.
32AA/	.	.	.	.	.	.
32AAA/	.	.	.	.	.	.
32AA/	.	.	.	.	.	.
32AAA/	.	.	.	8f#/J)	.	.
32AA/	.	.	.	.	.	.
32AAA/	.	.	.	.	.	.
32AA/JJJ)	.	.	.	.	.	.
=284	=284	=284	=284	=284	=284	=284
(32AAA/LLL	4g#/)	4e] 4d] 4B\]	[	(8b/L	.	.
32AA/	.	.	.	.	.	.
32AAA/	.	.	.	.	.	.
32AA/	.	.	.	.	.	.
32AAA/	.	.	.	8e/J	.	.
32AA/	.	.	.	.	.	.
32AAA/	.	.	.	.	.	.
32AA/	.	.	.	.	.	.
!	!	!	!LO:HP:a	!	!	!
32AAA/	(4f#/	2e 2d 2B\	<	8ddo/L	3	.
32AA/	.	.	.	.	.	.
32AAA/	.	.	.	.	.	.
32AA/	.	.	.	.	.	.
32AAA/	.	.	.	8f#/J	.	.
32AA/	.	.	.	.	.	.
32AAA/	.	.	.	.	.	.
32AA/	.	.	.	.	.	.
*	*	*	*	*	*below	*
32AAA/	4g#/)	.	[	8b/L	4	.
32AA/	.	.	.	.	.	.
32AAA/	.	.	.	.	.	.
32AA/	.	.	.	.	.	.
32AAA/	.	.	.	8e/J)	.	.
32AA/	.	.	.	.	.	.
32AAA/	.	.	.	.	.	.
32AA/JJJ)	.	.	.	.	.	.
*	*v	*v	*	*	*	*
=285	=285	=285	=285	=285	=285
!	!	!	!LO:TX:b:t=sul D:dur=9q:ext=ud:problem=text with extention lines	!	!
(32AAA/LLL	2a 2e 2c# 2A/	.	(2.au\	.	.
32AA/	.	.	.	.	.
32AAA/	.	.	.	.	.
32AA/	.	.	.	.	.
32AAA/	.	.	.	.	.
32AA/	.	.	.	.	.
32AAA/	.	.	.	.	.
32AA/	.	.	.	.	.
32AAA/	.	.	.	.	.
32AA/	.	.	.	.	.
32AAA/	.	.	.	.	.
32AA/	.	.	.	.	.
32AAA/	.	.	.	.	.
32AA/	.	.	.	.	.
32AAA/	.	.	.	.	.
32AA/	.	.	.	.	.
32AAA/	4r	.	.	.	.
32AA/	.	.	.	.	.
32AAA/	.	.	.	.	.
32AA/	.	.	.	.	.
32AAA/	.	.	.	.	.
32AA/	.	.	.	.	.
32AAA/	.	.	.	.	.
32AA/JJJ)	.	.	.	.	.
=286	=286	=286	=286	=286	=286
*	*	*^	*	*	*
*	*ped	*	*	*	*	*
!LO:TX:a:t=una corda.	!	!	!LO:DY:b=2	!	!	!
(32AAA/LLL	8ccc#L 8aa 8ee`\	pp	pp	2.ee\)	.	.
32AA/	.	.	.	.	.	.
32AAA/	.	.	.	.	.	.
32AA/	.	.	.	.	.	.
32AAA/	8bb#XJ 8aa 8ee`\	.	.	.	.	.
32AA/	.	.	.	.	.	.
32AAA/	.	.	.	.	.	.
32AA/	.	.	.	.	.	.
32AAA/	4ccc# 4aa 4ee`\	.	.	.	.	.
32AA/	.	.	.	.	.	.
32AAA/	.	.	.	.	.	.
32AA/	.	.	.	.	.	.
32AAA/	.	.	.	.	.	.
32AA/	.	.	.	.	.	.
32AAA/	.	.	.	.	.	.
32AA/	.	.	.	.	.	.
32AAA/	4a^/	.	.	.	.	.
32AA/	.	.	.	.	.	.
32AAA/	.	.	.	.	.	.
32AA/	.	.	.	.	.	.
32AAA/	.	.	.	.	.	.
32AA/	.	.	.	.	.	.
32AAA/	.	.	.	.	.	.
32AA/JJJ)	.	.	.	.	.	.
*	*	*v	*v	*	*	*
=287	=287	=287	=287	=287	=287
(32AAA/LLL	8aaL 8ee 8cc#`\	.	2.aao\	.	.
32AA/	.	.	.	.	.
32AAA/	.	.	.	.	.
32AA/	.	.	.	.	.
32AAA/	8gg#J 8ee 8cc#`\	.	.	.	.
32AA/	.	.	.	.	.
32AAA/	.	.	.	.	.
32AA/	.	.	.	.	.
32AAA/	4aa 4ee 4cc#`\	.	.	.	.
32AA/	.	.	.	.	.
32AAA/	.	.	.	.	.
32AA/	.	.	.	.	.
32AAA/	.	.	.	.	.
32AA/	.	.	.	.	.
32AAA/	.	.	.	.	.
32AA/	.	.	.	.	.
32AAA/	4e^/	.	.	.	.
32AA/	.	.	.	.	.
32AAA/	.	.	.	.	.
32AA/	.	.	.	.	.
32AAA/	.	.	.	.	.
32AA/	.	.	.	.	.
32AAA/	.	.	.	.	.
32AA/JJJ)	.	.	.	.	.
=288	=288	=288	=288	=288	=288
*	*	*	*8va	*bel,ow	*
!	!	!	!LO:TX:b:t=sul A:dur=6q:ext=ud:problem=text with extention lines	!	!
(32AAA/LLL	8eeL 8cc# 8a`\	.	2.eeeo\	.	.
32AA/	.	.	.	.	.
32AAA/	.	.	.	.	.
32AA/	.	.	.	.	.
32AAA/	8dd#XJ 8cc# 8a`\	.	.	.	.
32AA/	.	.	.	.	.
32AAA/	.	.	.	.	.
32AA/	.	.	.	.	.
32AAA/	4ee 4cc# 4a`\	.	.	.	.
32AA/	.	.	.	.	.
32AAA/	.	.	.	.	.
32AA/	.	.	.	.	.
32AAA/	.	.	.	.	.
32AA/	.	.	.	.	.
32AAA/	.	.	.	.	.
32AA/	.	.	.	.	.
32AAA/	4c#^/	.	.	.	.
32AA/	.	.	.	.	.
32AAA/	.	.	.	.	.
32AA/	.	.	.	.	.
*	*Xped	*	*	*	*
32AAA/	.	.	.	.	.
32AA/	.	.	.	.	.
32AAA/	.	.	.	.	.
32AA/JJJ)	.	.	.	.	.
=289	=289	=289	=289	=289	=289
*	*ped	*	*	*	*
!	!LO:TX:b:t=mo_ren_do_:dur=21q:ext=ud:problem=text with extention lines	!	!LO:TX:b:t=mo_ren_do_:dur=22q:ext=ud:problem=text with extention lines	!	!
4r	8cc#L 8a 8e`/	.	[2.aaao\	.	.
.	8b#XJ 8a 8e`/	.	.	.	.
4r	8cc# 8a 8e`/	.	.	.	.
.	8r	.	.	.	.
8A`\	4r	.	.	.	.
8r	.	.	.	.	.
!!LO:LB:g=original
=290	=290	=290	=290	=290	=290
*xywh-11:326,4796,4019,997	*xywh-11:326,4796,4019,997	*	*xywh-11:336,4396,3985,400	*	*
4r	8cc#L 8e`/	.	2.aaao<\]	.	.
.	8b#XJ 8e`/	.	.	.	.
4r	8cc# 8e`/	.	.	.	.
.	8r	.	.	.	.
8A`\	4r	.	.	.	.
8r	.	.	.	.	.
=291	=291	=291	=291	=291	=291
4r	8cc#L 8e`/	.	[2.aaao<u<\	.	.
.	8b#XJ 8e`/	.	.	.	.
4r	8cc# 8e`/	.	.	.	.
.	8r	.	.	.	.
8A`\	4r	.	.	.	.
8r	.	.	.	.	.
=292	=292	=292	=292	=292	=292
4r	8cc#L 8e`/	.	2.aaao<\]	.	.
.	8b#XJ 8e`/	.	.	.	.
4r	8cc# 8e`/	.	.	.	.
.	8r	.	.	.	.
8A`\	4r	.	.	.	.
*	*Xped	*	*	*	*
8r	.	.	.	.	.
=293	=293	=293	=293	=293	=293
*	*ped	*	*	*	*
2.r	8cc#L 8e`/	.	[2.aaao<\	.	.
.	8b#XJ 8e`/	.	.	.	.
.	8cc# 8e`/	.	.	.	.
.	8r	.	.	.	.
.	4r	.	.	.	.
=294	=294	=294	=294	=294	=294
8A^^\	2.r	.	2.aaao<\_	.	.
8r	.	.	.	.	.
4r	.	.	.	.	.
*	*Xped	*	*	*	*
4r	.	.	.	.	.
=295	=295	=295	=295	=295	=295
*ped	*	*	*	*	*
!	!LO:TX:a:t=lento.	!	!	!	!
2.r	8c#<L 8E<`</	.	2.aaao<\_	.	.
.	8B#X<J 8E<`</	.	.	.	.
.	8c#< 8E<`</	.	.	.	.
.	8r<	.	.	.	.
.	4r<	.	.	.	.
=296	=296	=296	=296	=296	=296
8AA`/	2.r	.	2.aaao<\_	.	.
8r	.	.	.	.	.
4r	.	.	.	.	.
4r	.	.	.	.	.
*Xped	*	*	*	*	*
=297	=297	=297	=297	=297	=297
*ped	*	*	*	*	*
2AAA`;/	2r;	.	2aaao<;\]	.	.
*	*	*	*X8va	*	*
*Xped	*	*	*	*	*
!LO:TX:b:t=Fine.	!	!	!	!	!
4r;	4r;	.	4r;	.	.
==	==	==	==	==	==
*-	*-	*-	*-	*-	*-
!!!system-decoration: s1{(s2,s3)}
!!!RDF**kern: > = above
!!!RDF**kern: < = below
!!!ENC: Filip Voros
!!!END: 2022-02-20
!!!ENC: Marta Lawrence
!!!END: 2022-03-02
!!!ENC-iiif: Marta Opryszak
!!!END-iiif: 2022-08-19
